; generated by PrusaSlicer 2.5.0+win64 on 2023-03-09 at 13:32:50 UTC


;
;

;
;
; 

; external perimeters extrusion width = 0.45mm
; perimeters extrusion width = 0.45mm
; infill extrusion width = 0.45mm
; solid infill extrusion width = 0.45mm
; top infill extrusion width = 0.40mm
; support material extrusion width = 0.35mm
; first layer extrusion width = 0.42mm

M73 P0 R108
M73 C58
M201 X2500 Y2500 Z400 E5000 ; sets maximum accelerations, mm/sec^2
M203 X180 Y180 Z12 E80 ; sets maximum feedrates, mm / sec
M204 P1250 R1250 T2500 ; sets acceleration (P, T) and retract acceleration (R), mm/sec^2
M205 X8.00 Y8.00 Z2.00 E10.00 ; sets the jerk limits, mm/sec
M205 S0 T0 ; sets the minimum extruding and travel feed rate, mm/sec
M107
;TYPE:Custom
M862.3 P "MINI" ; printer model check
G90 ; use absolute coordinates
M83 ; extruder relative mode
M104 S170 ; set extruder temp for bed leveling
M140 S60 ; set bed temp
M109 R170 ; wait for bed leveling temp
M190 S60 ; wait for bed temp
M204 T1250 ; set travel acceleration
G28 ; home all without mesh bed level
G29 ; mesh bed leveling 
M204 T2500 ; restore travel acceleration
M104 S215 ; set extruder temp
G92 E0
G1 Y-2 X179 F2400
G1 Z3 F720
M109 S215 ; wait for extruder temp

; intro line
G1 X170 F1000
G1 Z0.2 F720
G1 X110 E8 F900
G1 X40 E10 F700
G92 E0

M221 S95 ; set flow
G21 ; set units to millimeters
G90 ; use absolute coordinates
M83 ; use relative distances for extrusion
M900 K0.2 ; Filament gcode LA 1.5
; ; Filament gcode LA 1.0
M107
;LAYER_CHANGE
;Z:0.2
;HEIGHT:0.2
;BEFORE_LAYER_CHANGE
G92 E0.0
;0.2


G1 E-3.2 F4200
G1 Z.2 F720
;AFTER_LAYER_CHANGE
;0.2
G1 Z.4
G1 X61.278 Y49.634 F9000
G1 Z.2 F720
G1 E3.2 F2400
M204 P800
;TYPE:Skirt/Brim
;WIDTH:0.42
G1 F1200
G1 X62.323 Y48.757 E.04278
G1 X63.263 Y48.564 E.03008
G1 X119.906 Y48.564 E1.77599
G1 X121.213 Y48.955 E.04278
G1 X122.089 Y50.001 E.04278
G1 X122.283 Y50.941 E.03008
G1 X122.283 Y130.04 E2.4801
G1 X121.891 Y131.347 E.04278
G1 X120.845 Y132.224 E.04278
G1 X119.906 Y132.417 E.03008
G1 X63.263 Y132.417 E1.77599
G1 X61.956 Y132.026 E.04278
G1 X61.08 Y130.98 E.04278
G1 X60.886 Y130.04 E.03008
G1 X60.886 Y50.941 E2.4801
G1 X61.26 Y49.691 E.0409
M204 P1000
; printing object obal v2.stl id:0 copy 0
G1 E-2.24 F4200
;WIPE_START
G1 F7200
G1 X62.323 Y48.757 E-.78411
G1 X62.549 Y48.711 E-.12789
;WIPE_END
G1 E-.048 F4200
G1 Z.4 F720
G1 X65.843 Y53.941 F9000
G1 Z.2 F720
G1 E3.2 F2400
M204 P800
;TYPE:Support material
G1 F1200
G1 X66.676 Y53.941 E.02613
G1 X66.676 Y127.04 E2.29198
G1 X65.843 Y127.04 E.02613
G1 X65.843 Y130.04 E.09406
G1 X63.263 Y130.04 E.08089
G1 X63.263 Y50.941 E2.4801
G1 X65.843 Y50.941 E.08089
M73 P0 R107
G1 X65.843 Y53.884 E.09229
M204 P1000
G1 X66.027 Y126.87 F9000
M204 P800
G1 F1200
G1 X66.027 Y54.28 E2.27601
G1 X65.608 Y54.28 E.01314
G1 X65.608 Y126.701 E2.27069
G1 X65.504 Y126.701 E.00327
G1 X65.504 Y129.701 E.09406
G1 X65.189 Y129.701 E.00987
G1 X65.189 Y51.28 E2.45882
G1 X64.77 Y51.28 E.01314
M73 C57
G1 X64.77 Y129.701 E2.45882
G1 X64.351 Y129.701 E.01314
G1 X64.351 Y51.28 E2.45882
G1 X63.932 Y51.28 E.01314
G1 X63.932 Y129.87 E2.46414
M204 P1000
G1 E-2.24 F4200
;WIPE_START
G1 F7200
G1 X63.932 Y128.225 E-.912
;WIPE_END
G1 E-.048 F4200
G1 Z.4 F720
G1 X66.584 Y129.711 F9000
G1 Z.2 F720
G1 E3.2 F2400
M204 P800
;TYPE:Support material interface
;WIDTH:0.35
G1 F1200
G1 X66.23 Y129.711 E.00903
G1 X66.23 Y127.404 E.05891
G1 X66.448 Y127.404 E.00555
G1 X66.448 Y127.811 E.01041
M204 P1000
G1 X66.475 Y127.906 F9000
M204 P800
G1 F1200
G1 X66.696 Y128.127 E.00797
G1 X66.738 Y128.127 E.00106
G1 X66.738 Y129.711 E.04044
G1 X67.245 Y129.711 E.01295
G1 X67.245 Y128.127 E.04044
G1 X67.752 Y128.127 E.01295
G1 X67.752 Y129.711 E.04044
G1 X68.259 Y129.711 E.01295
G1 X68.259 Y128.127 E.04044
G1 X68.514 Y128.127 E.00651
G1 X68.514 Y129.711 E.04044
G1 X68.412 Y129.711 E.00259
M204 P1000
G1 X69.391 Y130.04 F9000
M204 P800
;TYPE:Support material
;WIDTH:0.42
G1 F1200
G1 X68.877 Y130.04 E.01612
G1 X68.877 Y127.901 E.06707
G1 X69.391 Y127.901 E.01612
G1 X69.391 Y129.984 E.0653
M204 P1000
G1 E-2.24 F4200
;WIPE_START
G1 F7200
G1 X69.391 Y128.338 E-.912
;WIPE_END
G1 E-.048 F4200
G1 Z.4 F720
G1 X113.928 Y127.902 F9000
G1 Z.2 F720
G1 E3.2 F2400
M204 P800
M73 P1 R107
G1 F1200
G1 X114.292 Y127.901 E.01141
G1 X114.292 Y130.04 E.06707
G1 X113.777 Y130.04 E.01612
G1 X113.777 Y127.901 E.06707
G1 X113.871 Y127.901 E.00294
M204 P1000
G1 X114.756 Y128.127 F9000
M204 P800
;TYPE:Support material interface
;WIDTH:0.35
G1 F1200
G1 X114.655 Y128.127 E.00259
G1 X114.655 Y129.711 E.04044
G1 X114.91 Y129.711 E.00651
G1 X114.91 Y128.127 E.04044
G1 X115.417 Y128.127 E.01295
G1 X115.417 Y129.711 E.04044
G1 X115.924 Y129.711 E.01295
G1 X115.924 Y128.127 E.04044
G1 X116.431 Y128.127 E.01295
G1 X116.431 Y129.711 E.04044
G1 X116.938 Y129.711 E.01295
G1 X116.938 Y127.404 E.05891
M204 P1000
G1 E-2.24 F4200
;WIPE_START
G1 F7200
G1 X116.938 Y129.049 E-.912
;WIPE_END
G1 E-.048 F4200
G1 Z.4 F720
G1 X115.104 Y126.51 F9000
G1 Z.2 F720
G1 E3.2 F2400
M204 P800
;TYPE:Support material
;WIDTH:0.42
G1 F1200
G1 X68.064 Y126.51 E1.47491
G1 X68.064 Y54.47 E2.25876
G1 X115.104 Y54.47 E1.47491
G1 X115.104 Y126.454 E2.25699
M204 P1000
G1 E-2.24 F4200
;WIPE_START
G1 F7200
G1 X115.104 Y124.808 E-.912
;WIPE_END
G1 E-.048 F4200
G1 Z.4 F720
G1 X73.764 Y61.135 F9000
G1 Z.2 F720
G1 E3.2 F2400
M204 P800
G1 F1200
G1 X73.764 Y119.846 E1.84085
G1 X109.405 Y119.846 E1.11748
G1 X109.405 Y61.135 E1.84085
G1 X73.821 Y61.135 E1.11571
M204 P1000
G1 E-2.24 F4200
;WIPE_START
G1 F7200
G1 X75.466 Y61.135 E-.912
;WIPE_END
G1 E-.048 F4200
G1 Z.4 F720
G1 X114.628 Y126.341 F9000
G1 Z.2 F720
G1 E3.2 F2400
M204 P800
G1 F1200
G1 X114.628 Y54.81 E2.2428
G1 X114.209 Y54.81 E.01314
G1 X114.209 Y126.171 E2.23748
G1 X113.79 Y126.171 E.01314
M73 P1 R106
G1 X113.79 Y54.81 E2.23748
G1 X113.371 Y54.81 E.01314
G1 X113.371 Y126.171 E2.23748
G1 X112.952 Y126.171 E.01314
G1 X112.952 Y54.81 E2.23748
G1 X112.533 Y54.81 E.01314
G1 X112.533 Y126.171 E2.23748
G1 X112.114 Y126.171 E.01314
M73 C56
G1 X112.114 Y54.81 E2.23748
G1 X111.695 Y54.81 E.01314
G1 X111.695 Y126.171 E2.23748
G1 X111.276 Y126.171 E.01314
G1 X111.276 Y54.81 E2.23748
G1 X110.857 Y54.81 E.01314
G1 X110.857 Y126.171 E2.23748
G1 X110.438 Y126.171 E.01314
G1 X110.438 Y54.81 E2.23748
G1 X110.019 Y54.81 E.01314
G1 X110.019 Y126.171 E2.23748
G1 X109.6 Y126.171 E.01314
M73 P2 R106
G1 X109.6 Y54.81 E2.23748
G1 X109.181 Y54.81 E.01314
G1 X109.181 Y60.795 E.18767
G1 X108.762 Y60.795 E.01314
G1 X108.762 Y54.81 E.18767
G1 X108.343 Y54.81 E.01314
G1 X108.343 Y60.795 E.18767
G1 X107.924 Y60.795 E.01314
G1 X107.924 Y54.81 E.18767
G1 X107.506 Y54.81 E.01314
G1 X107.506 Y60.795 E.18767
G1 X107.087 Y60.795 E.01314
G1 X107.087 Y54.81 E.18767
G1 X106.668 Y54.81 E.01314
G1 X106.668 Y60.795 E.18767
G1 X106.249 Y60.795 E.01314
G1 X106.249 Y54.81 E.18767
G1 X105.83 Y54.81 E.01314
G1 X105.83 Y60.795 E.18767
G1 X105.411 Y60.795 E.01314
G1 X105.411 Y54.81 E.18767
G1 X104.992 Y54.81 E.01314
G1 X104.992 Y60.795 E.18767
G1 X104.573 Y60.795 E.01314
G1 X104.573 Y54.81 E.18767
G1 X104.154 Y54.81 E.01314
G1 X104.154 Y60.795 E.18767
G1 X103.735 Y60.795 E.01314
G1 X103.735 Y54.81 E.18767
G1 X103.316 Y54.81 E.01314
G1 X103.316 Y60.795 E.18767
G1 X102.897 Y60.795 E.01314
G1 X102.897 Y54.81 E.18767
G1 X102.478 Y54.81 E.01314
G1 X102.478 Y60.795 E.18767
G1 X102.059 Y60.795 E.01314
G1 X102.059 Y54.81 E.18767
G1 X101.64 Y54.81 E.01314
G1 X101.64 Y60.795 E.18767
G1 X101.221 Y60.795 E.01314
G1 X101.221 Y54.81 E.18767
G1 X100.802 Y54.81 E.01314
G1 X100.802 Y60.795 E.18767
G1 X100.383 Y60.795 E.01314
G1 X100.383 Y54.81 E.18767
G1 X99.964 Y54.81 E.01314
G1 X99.964 Y60.795 E.18767
G1 X99.545 Y60.795 E.01314
G1 X99.545 Y54.81 E.18767
G1 X99.126 Y54.81 E.01314
G1 X99.126 Y60.795 E.18767
G1 X98.707 Y60.795 E.01314
G1 X98.707 Y54.81 E.18767
G1 X98.288 Y54.81 E.01314
G1 X98.288 Y60.795 E.18767
G1 X97.869 Y60.795 E.01314
G1 X97.869 Y54.81 E.18767
G1 X97.45 Y54.81 E.01314
G1 X97.45 Y60.795 E.18767
G1 X97.031 Y60.795 E.01314
G1 X97.031 Y54.81 E.18767
G1 X96.612 Y54.81 E.01314
G1 X96.612 Y60.795 E.18767
G1 X96.193 Y60.795 E.01314
G1 X96.193 Y54.81 E.18767
G1 X95.774 Y54.81 E.01314
G1 X95.774 Y60.795 E.18767
G1 X95.355 Y60.795 E.01314
G1 X95.355 Y54.81 E.18767
G1 X94.936 Y54.81 E.01314
G1 X94.936 Y60.795 E.18767
G1 X94.517 Y60.795 E.01314
G1 X94.517 Y54.81 E.18767
G1 X94.098 Y54.81 E.01314
G1 X94.098 Y60.795 E.18767
G1 X93.679 Y60.795 E.01314
G1 X93.679 Y54.81 E.18767
G1 X93.26 Y54.81 E.01314
G1 X93.26 Y60.795 E.18767
G1 X92.841 Y60.795 E.01314
G1 X92.841 Y54.81 E.18767
G1 X92.422 Y54.81 E.01314
G1 X92.422 Y60.795 E.18767
G1 X92.003 Y60.795 E.01314
G1 X92.003 Y54.81 E.18767
G1 X91.584 Y54.81 E.01314
G1 X91.584 Y60.795 E.18767
G1 X91.165 Y60.795 E.01314
G1 X91.165 Y54.81 E.18767
G1 X90.746 Y54.81 E.01314
G1 X90.746 Y60.795 E.18767
G1 X90.327 Y60.795 E.01314
G1 X90.327 Y54.81 E.18767
G1 X89.908 Y54.81 E.01314
G1 X89.908 Y60.795 E.18767
G1 X89.49 Y60.795 E.01314
G1 X89.49 Y54.81 E.18767
G1 X89.071 Y54.81 E.01314
G1 X89.071 Y60.795 E.18767
G1 X88.652 Y60.795 E.01314
G1 X88.652 Y54.81 E.18767
G1 X88.233 Y54.81 E.01314
G1 X88.233 Y60.795 E.18767
G1 X87.814 Y60.795 E.01314
G1 X87.814 Y54.81 E.18767
G1 X87.395 Y54.81 E.01314
G1 X87.395 Y60.795 E.18767
G1 X86.976 Y60.795 E.01314
G1 X86.976 Y54.81 E.18767
G1 X86.557 Y54.81 E.01314
G1 X86.557 Y60.795 E.18767
G1 X86.138 Y60.795 E.01314
G1 X86.138 Y54.81 E.18767
G1 X85.719 Y54.81 E.01314
G1 X85.719 Y60.795 E.18767
G1 X85.3 Y60.795 E.01314
M73 P2 R105
G1 X85.3 Y54.81 E.18767
G1 X84.881 Y54.81 E.01314
G1 X84.881 Y60.795 E.18767
G1 X84.462 Y60.795 E.01314
G1 X84.462 Y54.81 E.18767
G1 X84.043 Y54.81 E.01314
G1 X84.043 Y60.795 E.18767
G1 X83.624 Y60.795 E.01314
G1 X83.624 Y54.81 E.18767
G1 X83.205 Y54.81 E.01314
G1 X83.205 Y60.795 E.18767
G1 X82.786 Y60.795 E.01314
G1 X82.786 Y54.81 E.18767
G1 X82.367 Y54.81 E.01314
G1 X82.367 Y60.795 E.18767
G1 X81.948 Y60.795 E.01314
G1 X81.948 Y54.81 E.18767
G1 X81.529 Y54.81 E.01314
G1 X81.529 Y60.795 E.18767
G1 X81.11 Y60.795 E.01314
G1 X81.11 Y54.81 E.18767
G1 X80.691 Y54.81 E.01314
G1 X80.691 Y60.795 E.18767
G1 X80.272 Y60.795 E.01314
G1 X80.272 Y54.81 E.18767
G1 X79.853 Y54.81 E.01314
G1 X79.853 Y60.795 E.18767
G1 X79.434 Y60.795 E.01314
G1 X79.434 Y54.81 E.18767
G1 X79.015 Y54.81 E.01314
G1 X79.015 Y60.795 E.18767
G1 X78.596 Y60.795 E.01314
G1 X78.596 Y54.81 E.18767
G1 X78.177 Y54.81 E.01314
G1 X78.177 Y60.795 E.18767
G1 X77.758 Y60.795 E.01314
G1 X77.758 Y54.81 E.18767
G1 X77.339 Y54.81 E.01314
G1 X77.339 Y60.795 E.18767
G1 X76.92 Y60.795 E.01314
G1 X76.92 Y54.81 E.18767
G1 X76.501 Y54.81 E.01314
G1 X76.501 Y60.795 E.18767
G1 X76.082 Y60.795 E.01314
G1 X76.082 Y54.81 E.18767
G1 X75.663 Y54.81 E.01314
G1 X75.663 Y60.795 E.18767
G1 X75.244 Y60.795 E.01314
G1 X75.244 Y54.81 E.18767
G1 X74.825 Y54.81 E.01314
G1 X74.825 Y60.795 E.18767
G1 X74.406 Y60.795 E.01314
G1 X74.406 Y54.81 E.18767
G1 X73.987 Y54.81 E.01314
G1 X73.987 Y60.965 E.19299
M204 P1000
G1 E-2.24 F4200
;WIPE_START
G1 F7200
G1 X73.987 Y59.319 E-.912
;WIPE_END
G1 E-.048 F4200
G1 Z.4 F720
G1 X109.181 Y126.341 F9000
G1 Z.2 F720
G1 E3.2 F2400
M204 P800
G1 F1200
G1 X109.181 Y120.185 E.19299
G1 X108.762 Y120.185 E.01314
G1 X108.762 Y126.171 E.18767
G1 X108.343 Y126.171 E.01314
G1 X108.343 Y120.185 E.18767
G1 X107.924 Y120.185 E.01314
G1 X107.924 Y126.171 E.18767
G1 X107.506 Y126.171 E.01314
G1 X107.506 Y120.185 E.18767
G1 X107.087 Y120.185 E.01314
G1 X107.087 Y126.171 E.18767
G1 X106.668 Y126.171 E.01314
G1 X106.668 Y120.185 E.18767
G1 X106.249 Y120.185 E.01314
M73 C55
G1 X106.249 Y126.171 E.18767
G1 X105.83 Y126.171 E.01314
G1 X105.83 Y120.185 E.18767
G1 X105.411 Y120.185 E.01314
G1 X105.411 Y126.171 E.18767
G1 X104.992 Y126.171 E.01314
G1 X104.992 Y120.185 E.18767
G1 X104.573 Y120.185 E.01314
G1 X104.573 Y126.171 E.18767
G1 X104.154 Y126.171 E.01314
G1 X104.154 Y120.185 E.18767
G1 X103.735 Y120.185 E.01314
G1 X103.735 Y126.171 E.18767
G1 X103.316 Y126.171 E.01314
G1 X103.316 Y120.185 E.18767
G1 X102.897 Y120.185 E.01314
G1 X102.897 Y126.171 E.18767
G1 X102.478 Y126.171 E.01314
G1 X102.478 Y120.185 E.18767
G1 X102.059 Y120.185 E.01314
G1 X102.059 Y126.171 E.18767
G1 X101.64 Y126.171 E.01314
G1 X101.64 Y120.185 E.18767
G1 X101.221 Y120.185 E.01314
G1 X101.221 Y126.171 E.18767
G1 X100.802 Y126.171 E.01314
G1 X100.802 Y120.185 E.18767
G1 X100.383 Y120.185 E.01314
G1 X100.383 Y126.171 E.18767
G1 X99.964 Y126.171 E.01314
G1 X99.964 Y120.185 E.18767
G1 X99.545 Y120.185 E.01314
G1 X99.545 Y126.171 E.18767
G1 X99.126 Y126.171 E.01314
G1 X99.126 Y120.185 E.18767
G1 X98.707 Y120.185 E.01314
G1 X98.707 Y126.171 E.18767
G1 X98.288 Y126.171 E.01314
G1 X98.288 Y120.185 E.18767
G1 X97.869 Y120.185 E.01314
G1 X97.869 Y126.171 E.18767
G1 X97.45 Y126.171 E.01314
G1 X97.45 Y120.185 E.18767
G1 X97.031 Y120.185 E.01314
G1 X97.031 Y126.171 E.18767
G1 X96.612 Y126.171 E.01314
G1 X96.612 Y120.185 E.18767
G1 X96.193 Y120.185 E.01314
G1 X96.193 Y126.171 E.18767
G1 X95.774 Y126.171 E.01314
G1 X95.774 Y120.185 E.18767
G1 X95.355 Y120.185 E.01314
G1 X95.355 Y126.171 E.18767
G1 X94.936 Y126.171 E.01314
G1 X94.936 Y120.185 E.18767
G1 X94.517 Y120.185 E.01314
G1 X94.517 Y126.171 E.18767
G1 X94.098 Y126.171 E.01314
G1 X94.098 Y120.185 E.18767
G1 X93.679 Y120.185 E.01314
G1 X93.679 Y126.171 E.18767
G1 X93.26 Y126.171 E.01314
G1 X93.26 Y120.185 E.18767
G1 X92.841 Y120.185 E.01314
G1 X92.841 Y126.171 E.18767
G1 X92.422 Y126.171 E.01314
G1 X92.422 Y120.185 E.18767
G1 X92.003 Y120.185 E.01314
G1 X92.003 Y126.171 E.18767
G1 X91.584 Y126.171 E.01314
G1 X91.584 Y120.185 E.18767
G1 X91.165 Y120.185 E.01314
G1 X91.165 Y126.171 E.18767
G1 X90.746 Y126.171 E.01314
G1 X90.746 Y120.185 E.18767
G1 X90.327 Y120.185 E.01314
G1 X90.327 Y126.171 E.18767
G1 X89.908 Y126.171 E.01314
G1 X89.908 Y120.185 E.18767
G1 X89.49 Y120.185 E.01314
G1 X89.49 Y126.171 E.18767
G1 X89.071 Y126.171 E.01314
G1 X89.071 Y120.185 E.18767
G1 X88.652 Y120.185 E.01314
G1 X88.652 Y126.171 E.18767
G1 X88.233 Y126.171 E.01314
G1 X88.233 Y120.185 E.18767
G1 X87.814 Y120.185 E.01314
G1 X87.814 Y126.171 E.18767
G1 X87.395 Y126.171 E.01314
G1 X87.395 Y120.185 E.18767
G1 X86.976 Y120.185 E.01314
G1 X86.976 Y126.171 E.18767
G1 X86.557 Y126.171 E.01314
G1 X86.557 Y120.185 E.18767
G1 X86.138 Y120.185 E.01314
G1 X86.138 Y126.171 E.18767
G1 X85.719 Y126.171 E.01314
G1 X85.719 Y120.185 E.18767
G1 X85.3 Y120.185 E.01314
G1 X85.3 Y126.171 E.18767
G1 X84.881 Y126.171 E.01314
G1 X84.881 Y120.185 E.18767
G1 X84.462 Y120.185 E.01314
G1 X84.462 Y126.171 E.18767
G1 X84.043 Y126.171 E.01314
G1 X84.043 Y120.185 E.18767
G1 X83.624 Y120.185 E.01314
G1 X83.624 Y126.171 E.18767
G1 X83.205 Y126.171 E.01314
G1 X83.205 Y120.185 E.18767
G1 X82.786 Y120.185 E.01314
G1 X82.786 Y126.171 E.18767
G1 X82.367 Y126.171 E.01314
G1 X82.367 Y120.185 E.18767
G1 X81.948 Y120.185 E.01314
G1 X81.948 Y126.171 E.18767
G1 X81.529 Y126.171 E.01314
G1 X81.529 Y120.185 E.18767
G1 X81.11 Y120.185 E.01314
G1 X81.11 Y126.171 E.18767
G1 X80.691 Y126.171 E.01314
G1 X80.691 Y120.185 E.18767
G1 X80.272 Y120.185 E.01314
G1 X80.272 Y126.171 E.18767
G1 X79.853 Y126.171 E.01314
G1 X79.853 Y120.185 E.18767
G1 X79.434 Y120.185 E.01314
G1 X79.434 Y126.171 E.18767
G1 X79.015 Y126.171 E.01314
G1 X79.015 Y120.185 E.18767
G1 X78.596 Y120.185 E.01314
G1 X78.596 Y126.171 E.18767
G1 X78.177 Y126.171 E.01314
G1 X78.177 Y120.185 E.18767
G1 X77.758 Y120.185 E.01314
G1 X77.758 Y126.171 E.18767
G1 X77.339 Y126.171 E.01314
G1 X77.339 Y120.185 E.18767
G1 X76.92 Y120.185 E.01314
G1 X76.92 Y126.171 E.18767
G1 X76.501 Y126.171 E.01314
G1 X76.501 Y120.185 E.18767
G1 X76.082 Y120.185 E.01314
G1 X76.082 Y126.171 E.18767
G1 X75.663 Y126.171 E.01314
G1 X75.663 Y120.185 E.18767
G1 X75.244 Y120.185 E.01314
G1 X75.244 Y126.171 E.18767
G1 X74.825 Y126.171 E.01314
G1 X74.825 Y120.185 E.18767
G1 X74.406 Y120.185 E.01314
G1 X74.406 Y126.171 E.18767
G1 X73.987 Y126.171 E.01314
G1 X73.987 Y120.016 E.19299
M204 P1000
G1 X73.568 Y126.341 F9000
M204 P800
G1 F1200
G1 X73.568 Y54.81 E2.2428
G1 X73.149 Y54.81 E.01314
M73 P3 R105
