; generated by PrusaSlicer 2.5.0+win64 on 2023-03-10 at 16:34:55 UTC


;
;

;
;
; 

; external perimeters extrusion width = 0.45mm
; perimeters extrusion width = 0.45mm
; infill extrusion width = 0.45mm
; solid infill extrusion width = 0.45mm
; top infill extrusion width = 0.40mm
; first layer extrusion width = 0.42mm

M73 P0 R42
M201 X2500 Y2500 Z400 E5000 ; sets maximum accelerations, mm/sec^2
M203 X180 Y180 Z12 E80 ; sets maximum feedrates, mm / sec
M204 P1250 R1250 T2500 ; sets acceleration (P, T) and retract acceleration (R), mm/sec^2
M205 X8.00 Y8.00 Z2.00 E10.00 ; sets the jerk limits, mm/sec
M205 S0 T0 ; sets the minimum extruding and travel feed rate, mm/sec
M107
;TYPE:Custom
M862.3 P "MINI" ; printer model check
G90 ; use absolute coordinates
M83 ; extruder relative mode
M104 S170 ; set extruder temp for bed leveling
M140 S60 ; set bed temp
M109 R170 ; wait for bed leveling temp
M190 S60 ; wait for bed temp
M204 T1250 ; set travel acceleration
G28 ; home all without mesh bed level
G29 ; mesh bed leveling 
M204 T2500 ; restore travel acceleration
M104 S215 ; set extruder temp
G92 E0
G1 Y-2 X179 F2400
G1 Z3 F720
M109 S215 ; wait for extruder temp

; intro line
G1 X170 F1000
G1 Z0.2 F720
G1 X110 E8 F900
G1 X40 E10 F700
G92 E0

M221 S95 ; set flow
G21 ; set units to millimeters
G90 ; use absolute coordinates
M83 ; use relative distances for extrusion
M900 K0.2 ; Filament gcode LA 1.5
; ; Filament gcode LA 1.0
M107
;LAYER_CHANGE
;Z:0.2
;HEIGHT:0.2
;BEFORE_LAYER_CHANGE
G92 E0.0
;0.2


G1 E-3.2 F4200
M73 P0 R41
G1 Z.2 F720
;AFTER_LAYER_CHANGE
;0.2
G1 Z.4
G1 X65.015 Y53.193 F9000
G1 Z.2 F720
G1 E3.2 F2400
M204 P800
;TYPE:Skirt/Brim
;WIDTH:0.42
G1 F1200
G1 X66.06 Y52.317 E.04278
G1 X67 Y52.123 E.03008
G1 X113 Y52.123 E1.4423
G1 X114.307 Y52.515 E.04278
G1 X115.183 Y53.56 E.04278
G1 X115.377 Y54.5 E.03008
G1 X115.377 Y125.5 E2.22616
G1 X114.985 Y126.807 E.04278
G1 X113.94 Y127.683 E.04278
G1 X113 Y127.877 E.03008
G1 X67 Y127.877 E1.4423
G1 X65.693 Y127.485 E.04278
G1 X64.817 Y126.44 E.04278
G1 X64.623 Y125.5 E.03008
G1 X64.623 Y54.5 E2.22616
G1 X64.997 Y53.25 E.0409
M204 P1000
; printing object stred v3.stl id:0 copy 0
M73 P1 R41
G1 E-2.24 F4200
;WIPE_START
G1 F7200
G1 X66.06 Y52.317 E-.78411
G1 X66.286 Y52.27 E-.12789
;WIPE_END
G1 E-.048 F4200
G1 Z.4 F720
G1 X112.213 Y124.713 F9000
G1 Z.2 F720
G1 E3.2 F2400
M204 P800
;TYPE:Perimeter
;WIDTH:0.419999
G1 F1200
G1 X67.787 Y124.713 E1.39294
G1 X67.787 Y55.287 E2.17679
G1 X112.213 Y55.287 E1.39294
G1 X112.213 Y124.653 E2.17491
M204 P1000
G1 X112.59 Y125.09 F9000
M204 P800
;TYPE:External perimeter
G1 F1200
G1 X67.41 Y125.09 E1.41658
G1 X67.41 Y54.91 E2.20044
G1 X112.59 Y54.91 E1.41658
G1 X112.59 Y125.03 E2.19856
M204 P1000
G1 X112.212 Y124.959 F9000
M73 P2 R41
G1 E-2.24 F4200
;WIPE_START
G1 F7200
G1 X110.944 Y125.032 E-.912
;WIPE_END
G1 E-.048 F4200
G1 Z.4 F720
G1 X107.008 Y65.638 F9000
G1 Z.2 F720
G1 E3.2 F2400
M204 P800
;TYPE:Perimeter
G1 F1200
G1 X107.125 Y65.512 E.0054
G1 X107.343 Y65.424 E.00737
G1 X107.607 Y65.44 E.00827
G1 X107.833 Y65.574 E.00825
G1 X107.931 Y65.698 E.00496
G1 X109.674 Y68.717 E.1093
G1 X109.75 Y69 E.00918
G1 X109.722 Y69.173 E.00549
G1 X109.611 Y69.391 E.00767
G1 X109.042 Y70.347 E.03487
;WIDTH:0.390533
G1 X106.069 Y75.497 E.17189
;WIDTH:0.435513
G1 X105.997 Y75.592 E.00388
;WIDTH:0.480494
G1 X105.926 Y75.687 E.00432
;WIDTH:0.525475
G1 X105.854 Y75.781 E.00477
G1 X105.723 Y75.79 E.00527
;WIDTH:0.484928
G1 X105.592 Y75.799 E.00483
;WIDTH:0.444381
G1 X98.408 Y75.799 E.23981
;WIDTH:0.484928
G1 X98.277 Y75.79 E.00483
;WIDTH:0.525475
G1 X98.146 Y75.781 E.00527
G1 X98.074 Y75.687 E.00477
;WIDTH:0.480495
G1 X98.003 Y75.592 E.00432
;WIDTH:0.435514
G1 X97.931 Y75.497 E.00388
;WIDTH:0.390533
G1 X94.37 Y69.329 E.20585
;WIDTH:0.435513
G1 X94.313 Y69.22 E.00404
;WIDTH:0.480494
G1 X94.255 Y69.11 E.00451
;WIDTH:0.525475
G1 X94.198 Y69 E.00497
G1 X94.255 Y68.89 E.00497
;WIDTH:0.480494
G1 X94.313 Y68.78 E.00451
;WIDTH:0.435513
G1 X94.37 Y68.671 E.00404
;WIDTH:0.390533
G1 X97.454 Y63.329 E.17828
;WIDTH:0.419999
G1 X97.931 Y63.039 E.01751
G1 X98.41 Y63.085 E.01508
G1 X98.605 Y63.224 E.00752
G1 X100.49 Y66.463 E.1175
G1 X106.51 Y66.463 E.18873
G1 X106.967 Y65.681 E.02839
M204 P1000
G1 E-2.24 F4200
;WIPE_START
G1 F7200
G1 X107.125 Y65.512 E-.12861
G1 X107.343 Y65.424 E-.1302
G1 X107.607 Y65.44 E-.14622
G1 X107.833 Y65.574 E-.14585
G1 X107.931 Y65.698 E-.08761
G1 X108.178 Y66.126 E-.27352
;WIPE_END
G1 E-.048 F4200
G1 Z.4 F720
G1 X110.742 Y81.237 F9000
G1 Z.2 F720
G1 E3.2 F2400
M204 P800
G1 F1200
G1 X110.681 Y81.426 E.00622
G1 X110.417 Y81.627 E.01041
G1 X109.967 Y81.75 E.01463
G1 X109.396 Y81.559 E.01887
;WIDTH:0.396027
G1 X109.343 Y81.479 E.00281
;WIDTH:0.390533
G1 X106.37 Y76.329 E.17189
;WIDTH:0.435513
G1 X106.313 Y76.22 E.00404
;WIDTH:0.480494
G1 X106.255 Y76.11 E.00451
;WIDTH:0.525475
G1 X106.198 Y76 E.00497
G1 X106.255 Y75.89 E.00497
;WIDTH:0.480494
G1 X106.313 Y75.78 E.00451
;WIDTH:0.435513
G1 X106.37 Y75.671 E.00404
;WIDTH:0.390533
G1 X109.343 Y70.521 E.17189
;WIDTH:0.419999
G1 X109.967 Y70.25 E.02131
G1 X110.456 Y70.389 E.01595
G1 X110.681 Y70.574 E.00913
G1 X110.787 Y70.904 E.01085
G1 X110.787 Y81.096 E.31959
G1 X110.76 Y81.18 E.00276
M204 P1000
G1 E-2.24 F4200
;WIPE_START
G1 F7200
G1 X110.681 Y81.426 E-.14311
G1 X110.417 Y81.627 E-.18407
G1 X109.967 Y81.75 E-.25853
G1 X109.409 Y81.564 E-.3263
;WIPE_END
G1 E-.048 F4200
G1 Z.4 F720
G1 X109.662 Y82.728 F9000
G1 Z.2 F720
G1 E3.2 F2400
M204 P800
G1 F1200
G1 X109.744 Y82.919 E.00649
G1 X109.722 Y83.173 E.00801
G1 X109.611 Y83.391 E.00767
G1 X109.042 Y84.347 E.03487
;WIDTH:0.390533
G1 X106.069 Y89.497 E.17189
;WIDTH:0.435513
G1 X105.997 Y89.592 E.00388
;WIDTH:0.480494
G1 X105.926 Y89.687 E.00432
;WIDTH:0.525475
G1 X105.854 Y89.781 E.00477
G1 X105.723 Y89.79 E.00527
;WIDTH:0.484928
G1 X105.592 Y89.799 E.00483
;WIDTH:0.444381
G1 X98.408 Y89.799 E.23981
;WIDTH:0.484928
G1 X98.277 Y89.79 E.00483
;WIDTH:0.525475
G1 X98.146 Y89.781 E.00527
G1 X98.074 Y89.687 E.00477
;WIDTH:0.480495
G1 X98.003 Y89.592 E.00432
;WIDTH:0.435514
G1 X97.931 Y89.497 E.00388
;WIDTH:0.390533
G1 X94.37 Y83.329 E.20585
;WIDTH:0.435513
G1 X94.313 Y83.22 E.00404
;WIDTH:0.480494
G1 X94.255 Y83.11 E.00451
;WIDTH:0.525475
G1 X94.198 Y83 E.00497
G1 X94.255 Y82.89 E.00497
;WIDTH:0.480494
G1 X94.313 Y82.78 E.00451
;WIDTH:0.435513
G1 X94.37 Y82.671 E.00404
;WIDTH:0.390533
G1 X97.931 Y76.503 E.20585
;WIDTH:0.435514
G1 X98.003 Y76.408 E.00388
;WIDTH:0.480495
G1 X98.074 Y76.313 E.00432
;WIDTH:0.525475
G1 X98.146 Y76.219 E.00477
G1 X98.277 Y76.21 E.00527
;WIDTH:0.484928
G1 X98.408 Y76.201 E.00483
;WIDTH:0.444381
G1 X105.592 Y76.201 E.23981
;WIDTH:0.484928
G1 X105.723 Y76.21 E.00483
;WIDTH:0.525475
G1 X105.854 Y76.219 E.00527
G1 X105.926 Y76.313 E.00477
;WIDTH:0.480494
G1 X105.997 Y76.408 E.00432
;WIDTH:0.435513
G1 X106.069 Y76.503 E.00388
;WIDTH:0.390533
G1 X109.042 Y81.653 E.17189
;WIDTH:0.419999
G1 X109.639 Y82.673 E.03704
M204 P1000
G1 E-2.24 F4200
;WIPE_START
G1 F7200
G1 X109.744 Y82.919 E-.14803
G1 X109.722 Y83.173 E-.1415
G1 X109.611 Y83.391 E-.13563
G1 X109.162 Y84.146 E-.48685
;WIPE_END
G1 E-.048 F4200
G1 Z.4 F720
G1 X110.287 Y81.273 F9000
G1 Z.2 F720
G1 E3.2 F2400
M204 P800
;TYPE:External perimeter
G1 F1200
G1 X109.869 Y81.386 E.01355
G1 X109.657 Y81.298 E.0072
G1 X106.653 Y76.094 E.18841
G1 X106.633 Y75.955 E.0044
G1 X109.657 Y70.702 E.19006
G1 X109.869 Y70.614 E.0072
G1 X110.3 Y70.732 E.01399
G1 X110.375 Y70.794 E.00304
G1 X110.41 Y70.904 E.00362
G1 X110.41 Y81.096 E.31959
G1 X110.375 Y81.206 E.00362
G1 X110.334 Y81.237 E.00159
M204 P1000
G1 X110.276 Y81.673 F9000
G1 E-2.24 F4200
;WIPE_START
G1 F7200
G1 X109.869 Y81.386 E-.2706
G1 X109.657 Y81.298 E-.12721
G1 X109.193 Y80.495 E-.51419
;WIPE_END
G1 E-.048 F4200
G1 Z.4 F720
G1 X93.644 Y69.204 F9000
G1 Z.2 F720
G1 E3.2 F2400
M204 P800
;TYPE:Perimeter
;WIDTH:0.484928
G1 F1200
G1 X93.723 Y69.21 E.00291
;WIDTH:0.525475
G1 X93.854 Y69.219 E.00527
G1 X93.926 Y69.313 E.00477
;WIDTH:0.480494
G1 X93.997 Y69.408 E.00432
;WIDTH:0.435513
G1 X94.069 Y69.503 E.00388
;WIDTH:0.390533
G1 X97.63 Y75.671 E.20585
;WIDTH:0.435514
G1 X97.687 Y75.78 E.00404
;WIDTH:0.480495
G1 X97.745 Y75.89 E.00451
;WIDTH:0.525475
G1 X97.802 Y76 E.00497
G1 X97.771 Y76.068 E.003
;WIDTH:0.478663
G1 X97.739 Y76.135 E.00271
;WIDTH:0.431851
G1 X97.63 Y76.329 E.0072
;WIDTH:0.390533
G1 X94.069 Y82.497 E.20585
;WIDTH:0.435513
G1 X93.997 Y82.592 E.00388
;WIDTH:0.480494
G1 X93.926 Y82.687 E.00432
;WIDTH:0.525475
G1 X93.854 Y82.781 E.00477
G1 X93.723 Y82.79 E.00527
;WIDTH:0.484928
G1 X93.592 Y82.799 E.00483
;WIDTH:0.444381
G1 X86.408 Y82.799 E.23981
;WIDTH:0.484928
G1 X86.277 Y82.79 E.00483
;WIDTH:0.525475
G1 X86.146 Y82.781 E.00527
G1 X86.074 Y82.687 E.00477
;WIDTH:0.480495
G1 X86.003 Y82.592 E.00432
;WIDTH:0.435514
G1 X85.931 Y82.497 E.00388
;WIDTH:0.390533
G1 X82.37 Y76.329 E.20585
;WIDTH:0.435514
G1 X82.313 Y76.22 E.00404
;WIDTH:0.480495
G1 X82.255 Y76.11 E.00451
;WIDTH:0.525475
G1 X82.198 Y76 E.00497
G1 X82.255 Y75.89 E.00497
;WIDTH:0.480494
G1 X82.313 Y75.78 E.00451
;WIDTH:0.435513
G1 X82.37 Y75.671 E.00404
;WIDTH:0.390533
G1 X85.931 Y69.503 E.20585
;WIDTH:0.435514
G1 X86.003 Y69.408 E.00388
;WIDTH:0.480495
G1 X86.074 Y69.313 E.00432
;WIDTH:0.525475
G1 X86.146 Y69.219 E.00477
G1 X86.277 Y69.21 E.00527
;WIDTH:0.484928
G1 X86.408 Y69.201 E.00483
;WIDTH:0.444381
G1 X93.584 Y69.201 E.23955
M204 P1000
G1 E-2.24 F4200
;WIPE_START
G1 F7200
G1 X93.723 Y69.21 E-.07713
G1 X93.854 Y69.219 E-.07281
G1 X93.926 Y69.313 E-.06587
G1 X93.997 Y69.408 E-.06587
G1 X94.069 Y69.503 E-.06587
G1 X94.578 Y70.385 E-.56443
;WIPE_END
G1 E-.048 F4200
G1 Z.4 F720
G1 X97.645 Y89.699 F9000
G1 Z.2 F720
G1 E3.2 F2400
M204 P800
;WIDTH:0.435514
G1 F1200
G1 X97.687 Y89.78 E.00299
;WIDTH:0.480495
G1 X97.745 Y89.89 E.00451
;WIDTH:0.525475
G1 X97.802 Y90 E.00497
G1 X97.771 Y90.068 E.003
;WIDTH:0.478663
G1 X97.739 Y90.135 E.00271
;WIDTH:0.431851
G1 X97.63 Y90.329 E.0072
;WIDTH:0.390533
G1 X94.069 Y96.497 E.20585
;WIDTH:0.435513
G1 X93.997 Y96.592 E.00388
;WIDTH:0.480494
G1 X93.926 Y96.687 E.00432
;WIDTH:0.525475
G1 X93.854 Y96.781 E.00477
G1 X93.723 Y96.79 E.00527
;WIDTH:0.484928
G1 X93.592 Y96.799 E.00483
;WIDTH:0.444381
G1 X86.408 Y96.799 E.23981
;WIDTH:0.484928
G1 X86.277 Y96.79 E.00483
;WIDTH:0.525475
G1 X86.146 Y96.781 E.00527
G1 X86.074 Y96.687 E.00477
;WIDTH:0.480495
G1 X86.003 Y96.592 E.00432
;WIDTH:0.435514
G1 X85.931 Y96.497 E.00388
;WIDTH:0.390533
G1 X82.37 Y90.329 E.20585
;WIDTH:0.435514
G1 X82.313 Y90.22 E.00404
;WIDTH:0.480495
G1 X82.255 Y90.11 E.00451
;WIDTH:0.525475
G1 X82.198 Y90 E.00497
G1 X82.255 Y89.89 E.00497
;WIDTH:0.480494
G1 X82.313 Y89.78 E.00451
;WIDTH:0.435513
G1 X82.37 Y89.671 E.00404
;WIDTH:0.390533
G1 X85.931 Y83.503 E.20585
;WIDTH:0.435514
G1 X86.003 Y83.408 E.00388
;WIDTH:0.480495
G1 X86.074 Y83.313 E.00432
;WIDTH:0.525475
G1 X86.146 Y83.219 E.00477
G1 X86.277 Y83.21 E.00527
;WIDTH:0.484928
G1 X86.408 Y83.201 E.00483
;WIDTH:0.444381
G1 X93.592 Y83.201 E.23981
;WIDTH:0.484928
G1 X93.723 Y83.21 E.00483
;WIDTH:0.525475
G1 X93.854 Y83.219 E.00527
G1 X93.926 Y83.313 E.00477
;WIDTH:0.480494
G1 X93.997 Y83.408 E.00432
;WIDTH:0.435513
G1 X94.069 Y83.503 E.00388
;WIDTH:0.390533
G1 X97.616 Y89.647 E.20505
M204 P1000
G1 E-2.24 F4200
;WIPE_START
G1 F7200
G1 X97.687 Y89.78 E-.08398
G1 X97.745 Y89.89 E-.06866
G1 X97.802 Y90 E-.06866
G1 X97.771 Y90.068 E-.0414
G1 X97.739 Y90.135 E-.0414
G1 X97.63 Y90.329 E-.12332
G1 X97.193 Y91.087 E-.48459
;WIPE_END
G1 E-.048 F4200
G1 Z.4 F720
G1 X102.199 Y103.578 F9000
G1 Z.2 F720
G1 E3.2 F2400
M204 P800
;WIDTH:0.45028
G1 F1200
G1 X101.908 Y103.793 E.01225
G1 X101.808 Y103.799 E.0034
;WIDTH:0.444381
G1 X98.408 Y103.799 E.1135
;WIDTH:0.484922
G1 X98.277 Y103.79 E.00483
;WIDTH:0.525463
G1 X98.146 Y103.781 E.00527
G1 X98.074 Y103.687 E.00477
;WIDTH:0.480487
G1 X98.003 Y103.592 E.00432
;WIDTH:0.43551
G1 X97.931 Y103.497 E.00388
;WIDTH:0.390533
G1 X94.37 Y97.329 E.20585
;WIDTH:0.435513
G1 X94.313 Y97.22 E.00404
;WIDTH:0.480494
G1 X94.255 Y97.11 E.00451
;WIDTH:0.525475
G1 X94.198 Y97 E.00497
G1 X94.255 Y96.89 E.00497
;WIDTH:0.480494
G1 X94.313 Y96.78 E.00451
;WIDTH:0.435513
G1 X94.37 Y96.671 E.00404
;WIDTH:0.390533
G1 X97.931 Y90.503 E.20585
;WIDTH:0.435514
G1 X98.003 Y90.408 E.00388
;WIDTH:0.480495
G1 X98.074 Y90.313 E.00432
;WIDTH:0.525475
G1 X98.146 Y90.219 E.00477
G1 X98.277 Y90.21 E.00527
;WIDTH:0.484928
G1 X98.408 Y90.201 E.00483
;WIDTH:0.444381
G1 X105.592 Y90.201 E.23981
;WIDTH:0.484928
G1 X105.723 Y90.21 E.00483
;WIDTH:0.525475
G1 X105.854 Y90.219 E.00527
G1 X105.926 Y90.313 E.00477
;WIDTH:0.480494
G1 X105.997 Y90.408 E.00432
;WIDTH:0.435513
G1 X106.069 Y90.503 E.00388
;WIDTH:0.390532
G1 X108.853 Y95.325 E.16092
;WIDTH:0.41872
G1 X108.941 Y95.593 E.00884
;WIDTH:0.419999
G1 X108.916 Y95.767 E.00549
G1 X108.675 Y96.192 E.01533
G1 X108.53 Y96.312 E.00591
G1 X108.248 Y96.387 E.00914
G1 X104.79 Y96.387 E.10841
G1 X101.781 Y101.6 E.18873
G1 X102.426 Y102.717 E.04045
G1 X102.5 Y102.954 E.00779
G1 X102.488 Y103.121 E.00523
G1 X102.298 Y103.504 E.01342
;WIDTH:0.45028
G1 X102.247 Y103.542 E.00215
M204 P1000
G1 E-2.24 F4200
;WIPE_START
G1 F7200
G1 X101.908 Y103.793 E-.23364
G1 X101.808 Y103.799 E-.0557
G1 X100.684 Y103.799 E-.62266
;WIPE_END
G1 E-.048 F4200
G1 Z.4 F720
G1 X109.805 Y84.32 F9000
G1 Z.2 F720
G1 E3.2 F2400
M204 P800
;WIDTH:0.419999
G1 F1200
G1 X109.967 Y84.25 E.00555
G1 X110.456 Y84.389 E.01595
G1 X110.681 Y84.574 E.00913
G1 X110.787 Y84.904 E.01085
G1 X110.787 Y95.096 E.31959
G1 X110.779 Y95.194 E.00308
G1 X110.642 Y95.475 E.00979
G1 X110.368 Y95.643 E.01008
G1 X109.827 Y95.769 E.01742
G1 X109.543 Y95.697 E.00918
G1 X109.331 Y95.486 E.00937
;WIDTH:0.41872
G1 X109.154 Y95.151 E.01186
;WIDTH:0.390532
G1 X106.37 Y90.329 E.16092
;WIDTH:0.435513
G1 X106.313 Y90.22 E.00404
;WIDTH:0.480494
G1 X106.255 Y90.11 E.00451
;WIDTH:0.525475
G1 X106.198 Y90 E.00497
G1 X106.255 Y89.89 E.00497
;WIDTH:0.480494
G1 X106.313 Y89.78 E.00451
;WIDTH:0.435513
G1 X106.37 Y89.671 E.00404
;WIDTH:0.390533
G1 X109.343 Y84.521 E.17189
;WIDTH:0.419999
G1 X109.75 Y84.344 E.01388
M204 P1000
G1 X109.869 Y84.614 F9000
M204 P800
;TYPE:External perimeter
G1 F1200
G1 X110.3 Y84.732 E.01399
G1 X110.375 Y84.794 E.00304
G1 X110.41 Y84.904 E.00362
G1 X110.41 Y95.096 E.31959
G1 X110.362 Y95.223 E.00424
G1 X109.869 Y95.386 E.01626
G1 X109.728 Y95.368 E.00446
G1 X109.468 Y94.97 E.01493
G1 X106.653 Y90.094 E.17651
G1 X106.633 Y89.955 E.0044
G1 X109.657 Y84.702 E.19006
G1 X109.814 Y84.637 E.00532
M204 P1000
G1 X110.01 Y84.24 F9000
G1 E-2.24 F4200
;WIPE_START
G1 F7200
G1 X110.3 Y84.732 E-.27435
G1 X110.375 Y84.794 E-.05378
G1 X110.41 Y84.904 E-.06393
G1 X110.41 Y85.842 E-.51993
;WIPE_END
G1 E-.048 F4200
G1 Z.4 F720
G1 X108.902 Y99.049 F9000
G1 Z.2 F720
G1 E3.2 F2400
M204 P800
;TYPE:Perimeter
G1 F1200
G1 X109.345 Y99.29 E.0158
G1 X109.891 Y99.76 E.02258
G1 X110.259 Y100.292 E.02028
G1 X110.495 Y100.894 E.02028
G1 X110.589 Y101.6 E.02233
G1 X110.53 Y102.132 E.01677
G1 X110.322 Y102.781 E.02137
G1 X109.975 Y103.34 E.02062
G1 X109.516 Y103.795 E.02028
G1 X108.963 Y104.131 E.02028
G1 X108.348 Y104.331 E.02028
G1 X107.704 Y104.384 E.02028
G1 X107.064 Y104.287 E.02028
G1 X106.501 Y104.06 E.01904
G1 X105.937 Y103.67 E.0215
G1 X105.482 Y103.135 E.02204
G1 X105.206 Y102.614 E.01848
G1 X105.042 Y101.989 E.02028
G1 X105.026 Y101.342 E.02028
G1 X105.161 Y100.709 E.02028
G1 X105.437 Y100.125 E.02028
G1 X105.841 Y99.619 E.02028
G1 X106.351 Y99.221 E.02029
G1 X106.995 Y98.939 E.02204
G1 X107.573 Y98.824 E.01848
G1 X108.176 Y98.844 E.01894
G1 X108.85 Y99.021 E.02183
M204 P1000
G1 X108.748 Y99.386 F9000
M204 P800
;TYPE:External perimeter
G1 F1200
G1 X109.222 Y99.654 E.01705
G1 X109.632 Y100.034 E.01755
G1 X109.944 Y100.499 E.01755
G1 X110.14 Y101.023 E.01755
G1 X110.212 Y101.6 E.01823
G1 X110.154 Y102.099 E.01574
G1 X109.965 Y102.659 E.01853
G1 X109.66 Y103.133 E.01767
G1 X109.257 Y103.52 E.01755
G1 X108.775 Y103.804 E.01755
M73 P2 R40
G1 X108.24 Y103.97 E.01755
G1 X107.682 Y104.007 E.01755
G1 X107.13 Y103.915 E.01755
G1 X106.65 Y103.714 E.01631
