; generated by PrusaSlicer 2.5.0+win64 on 2023-03-09 at 20:05:39 UTC


;
;

;
;
; 

; external perimeters extrusion width = 0.45mm
; perimeters extrusion width = 0.45mm
; infill extrusion width = 0.45mm
; solid infill extrusion width = 0.45mm
; top infill extrusion width = 0.40mm
; first layer extrusion width = 0.42mm

M73 P0 R4
M201 X2500 Y2500 Z400 E5000 ; sets maximum accelerations, mm/sec^2
M203 X180 Y180 Z12 E80 ; sets maximum feedrates, mm / sec
M204 P1250 R1250 T2500 ; sets acceleration (P, T) and retract acceleration (R), mm/sec^2
M205 X8.00 Y8.00 Z2.00 E10.00 ; sets the jerk limits, mm/sec
M205 S0 T0 ; sets the minimum extruding and travel feed rate, mm/sec
M107
;TYPE:Custom
M862.3 P "MINI" ; printer model check
G90 ; use absolute coordinates
M83 ; extruder relative mode
M104 S170 ; set extruder temp for bed leveling
M140 S60 ; set bed temp
M109 R170 ; wait for bed leveling temp
M190 S60 ; wait for bed temp
M204 T1250 ; set travel acceleration
G28 ; home all without mesh bed level
G29 ; mesh bed leveling 
M204 T2500 ; restore travel acceleration
M104 S215 ; set extruder temp
G92 E0
G1 Y-2 X179 F2400
G1 Z3 F720
M109 S215 ; wait for extruder temp

; intro line
M73 P1 R4
G1 X170 F1000
G1 Z0.2 F720
M73 P2 R4
G1 X110 E8 F900
G1 X40 E10 F700
G92 E0

M221 S95 ; set flow
G21 ; set units to millimeters
G90 ; use absolute coordinates
M83 ; use relative distances for extrusion
M900 K0.2 ; Filament gcode LA 1.5
; ; Filament gcode LA 1.0
M107
;LAYER_CHANGE
;Z:0.2
;HEIGHT:0.2
;BEFORE_LAYER_CHANGE
G92 E0.0
;0.2


M73 P3 R4
G1 E-3.2 F4200
M73 P6 R3
G1 Z.2 F720
;AFTER_LAYER_CHANGE
;0.2
G1 Z.4
G1 X74.811 Y60.178 F9000
G1 Z.2 F720
G1 E3.2 F2400
M204 P800
;TYPE:Skirt/Brim
;WIDTH:0.42
G1 F1200
G1 X75.791 Y59.229 E.04278
G1 X76.885 Y58.962 E.03531
G1 X100.714 Y58.961 E.74712
G1 X102.021 Y59.352 E.04278
G1 X102.788 Y60.177 E.03533
M73 P7 R3
G1 X103.797 Y62.131 E.06892
G1 X104.661 Y64.316 E.07368
G1 X105.285 Y66.519 E.07181
G1 X110.186 Y94.835 E.90101
G1 X111.164 Y101.141 E.2001
G1 X110.674 Y102.987 E.0599
G1 X108.227 Y106.056 E.12306
G1 X96.857 Y117.32 E.50182
G1 X96.237 Y117.762 E.02388
M73 P8 R3
G1 X90.084 Y120.794 E.21508
G1 X88.738 Y121.021 E.04278
G1 X87.683 Y120.618 E.03541
G1 X81.151 Y116.067 E.24961
G1 X71.12 Y106.15 E.44229
G1 X70.711 Y105.611 E.02121
G1 X69.105 Y102.709 E.10397
G1 X68.818 Y101.334 E.04404
M73 P9 R3
G1 X71.832 Y69.461 E1.00381
G1 X72.314 Y66.519 E.09348
G1 X72.714 Y65.013 E.04887
G1 X73.215 Y63.541 E.04876
G1 X73.861 Y62.007 E.05217
G1 X74.783 Y60.231 E.06275
M204 P1000
; printing object top-text v2.stl id:0 copy 0
G1 E-2.24 F4200
;WIPE_START
G1 F7200
G1 X75.791 Y59.229 E-.78773
G1 X76.009 Y59.176 E-.12427
;WIPE_END
G1 E-.048 F4200
G1 Z.4 F720
G1 X89.032 Y112.155 F9000
G1 Z.2 F720
M73 P10 R3
G1 E3.2 F2400
M204 P800
;TYPE:Perimeter
;WIDTH:0.419999
G1 F1200
G1 X91.729 Y114.852 E.1196
G1 X89.033 Y117.549 E.11958
G1 X86.335 Y114.852 E.1196
G1 X88.99 Y112.197 E.1177
M204 P1000
G1 X89.032 Y111.622 F9000
M204 P800
;TYPE:External perimeter
G1 F1200
G1 X92.263 Y114.852 E.14324
G1 X89.033 Y118.082 E.14323
G1 X85.802 Y114.852 E.14324
G1 X88.99 Y111.664 E.14135
M204 P1000
G1 X89.232 Y111.968 F9000
G1 X88.903 Y112.444
M204 P800
;TYPE:Solid infill
;WIDTH:0.445768
G1 F1200
G1 X91.32 Y114.861 E.11451
G1 X91.035 Y115.146 E.01349
G1 X88.738 Y112.849 E.10883
G1 X88.453 Y113.134 E.01349
M73 P11 R3
G1 X90.751 Y115.431 E.10883
G1 X90.466 Y115.716 E.01349
G1 X88.169 Y113.418 E.10883
G1 X87.884 Y113.703 E.01349
G1 X90.181 Y116.001 E.10883
G1 X89.896 Y116.285 E.01349
G1 X87.599 Y113.988 E.10883
G1 X87.314 Y114.273 E.01349
G1 X89.611 Y116.57 E.10883
G1 X89.326 Y116.855 E.01349
G1 X87.029 Y114.558 E.10883
G1 X86.744 Y114.843 E.01349
G1 X89.162 Y117.26 E.11451
M204 P1000
G1 E-2.24 F4200
;WIPE_START
G1 F7200
G1 X87.998 Y116.096 E-.912
;WIPE_END
G1 E-.048 F4200
G1 Z.4 F720
G1 X100.681 Y108.197 F9000
G1 Z.2 F720
G1 E3.2 F2400
M204 P800
;TYPE:Perimeter
;WIDTH:0.419999
G1 F1200
G1 X100.788 Y108.185 E.00338
G1 X102.341 Y107.421 E.05424
G1 X95.187 Y114.518 E.31596
G1 X90.291 Y109.63 E.21691
G1 X89.855 Y109.251 E.01812
M73 P12 R3
G1 X89.25 Y108.82 E.02328
G1 X89.899 Y108.354 E.02505
G1 X90.291 Y108.01 E.01634
G1 X95.185 Y103.125 E.21682
G1 X100.139 Y108.077 E.21962
G1 X100.415 Y108.229 E.00987
G1 X100.622 Y108.204 E.00653
M204 P1000
G1 X100.622 Y107.846 F9000
M204 P800
;TYPE:External perimeter
G1 F1200
G1 X102.585 Y106.878 E.06863
;WIDTH:0.438131
G1 X103.457 Y106.388 E.03288
G1 X104.247 Y105.844 E.03152
;WIDTH:0.413992
G1 X105.302 Y105.326 E.03627
G1 X104.451 Y106.153 E.03663
;WIDTH:0.441541
G1 X103.652 Y106.736 E.03279
G1 X102.922 Y107.378 E.0322
;WIDTH:0.419999
G1 X100.471 Y109.79 E.10783
G1 X95.186 Y115.05 E.23379
G1 X90.024 Y109.897 E.2287
G1 X89.636 Y109.558 E.01618
M73 P13 R3
G1 X88.871 Y109.012 E.02946
G1 X88.674 Y108.82 E.00864
G1 X88.855 Y108.638 E.00804
G1 X89.636 Y108.082 E.03009
G1 X90.025 Y107.743 E.01616
G1 X95.186 Y102.592 E.22863
G1 X100.405 Y107.81 E.23143
G1 X100.497 Y107.861 E.00329
G1 X100.562 Y107.853 E.00205
M204 P1000
G1 X100.902 Y108.132 F9000
G1 E-2.24 F4200
;WIPE_START
G1 F7200
G1 X102.045 Y107.138 E-.912
;WIPE_END
G1 E-.048 F4200
G1 Z.4 F720
G1 X87.508 Y108.819 F9000
G1 Z.2 F720
G1 E3.2 F2400
M204 P800
;TYPE:Perimeter
G1 F1200
G1 X86.831 Y109.306 E.02616
G1 X86.437 Y109.656 E.01652
G1 X82.819 Y113.267 E.16027
G1 X76.753 Y107.274 E.26737
G1 X78.515 Y108.141 E.06156
G1 X78.915 Y108.178 E.0126
G1 X79.165 Y108.033 E.00905
G1 X82.823 Y104.376 E.16219
G1 X86.437 Y107.982 E.16007
M73 P14 R3
G1 X86.878 Y108.37 E.01842
G1 X87.46 Y108.784 E.02239
M204 P1000
G1 X88.082 Y108.819 F9000
M204 P800
;TYPE:External perimeter
G1 F1200
G1 X87.878 Y109.019 E.00898
G1 X87.081 Y109.588 E.03069
G1 X86.704 Y109.923 E.01583
G1 X82.821 Y113.798 E.172
G1 X76.089 Y107.159 E.29646
;WIDTH:0.440934
G1 X75.439 Y106.582 E.02877
G1 X74.655 Y106.013 E.03205
;WIDTH:0.410195
G1 X73.827 Y105.196 E.03553
G1 X74.875 Y105.72 E.03579
;WIDTH:0.438712
G1 X75.428 Y106.099 E.02206
;WIDTH:0.467229
G1 X75.981 Y106.477 E.02365
G1 X76.423 Y106.691 E.01731
;WIDTH:0.419999
G1 X78.681 Y107.802 E.07892
G1 X78.815 Y107.815 E.0042
G1 X78.898 Y107.766 E.00302
G1 X82.823 Y103.843 E.174
G1 X86.703 Y107.715 E.17188
G1 X87.097 Y108.063 E.01649
G1 X87.878 Y108.619 E.03004
G1 X88.039 Y108.777 E.00709
M204 P1000
G1 X87.809 Y108.903 F9000
G1 E-2.24 F4200
;WIPE_START
G1 F7200
G1 X87.878 Y109.019 E-.16134
G1 X87.081 Y109.588 E-.54249
G1 X86.8 Y109.837 E-.20817
;WIPE_END
G1 E-.048 F4200
G1 Z.4 F720
G1 X82.525 Y104.833 F9000
M73 P15 R3
G1 Z.2 F720
G1 E3.2 F2400
M204 P800
;TYPE:Solid infill
;WIDTH:0.436242
G1 F1200
G1 X86.726 Y109.034 E.19429
G1 X86.425 Y109.289 E.01291
G1 X82.367 Y105.231 E.18767
G1 X82.089 Y105.509 E.01286
G1 X86.137 Y109.557 E.1872
G1 X85.858 Y109.834 E.01286
G1 X81.811 Y105.787 E.18719
G1 X81.533 Y106.065 E.01286
G1 X85.58 Y110.112 E.18718
G1 X85.301 Y110.39 E.01286
G1 X81.255 Y106.343 E.18717
G1 X80.977 Y106.622 E.01286
G1 X85.023 Y110.668 E.18716
G1 X84.745 Y110.946 E.01286
G1 X80.698 Y106.9 E.18715
G1 X80.42 Y107.178 E.01286
M73 P16 R3
G1 X84.466 Y111.224 E.18714
G1 X84.188 Y111.502 E.01286
G1 X80.142 Y107.456 E.18713
G1 X79.864 Y107.734 E.01286
G1 X83.909 Y111.779 E.18712
G1 X83.631 Y112.057 E.01286
G1 X79.586 Y108.012 E.1871
G1 X79.356 Y108.242 E.01063
G1 X79.295 Y108.277 E.00231
G1 X83.353 Y112.335 E.18768
G1 X83.074 Y112.613 E.01286
G1 X78.911 Y108.45 E.19256
G1 X78.406 Y108.402 E.0166
G1 X78.28 Y108.34 E.00458
G1 X78.266 Y108.361 E.00081
G1 X82.916 Y113.011 E.21509
M204 P1000
G1 E-2.24 F4200
;WIPE_START
G1 F7200
M73 P17 R3
G1 X81.752 Y111.847 E-.912
;WIPE_END
G1 E-.048 F4200
G1 Z.4 F720
G1 X95.183 Y103.287 F9000
G1 Z.2 F720
G1 E3.2 F2400
M204 P800
;WIDTH:0.432766
G1 F1200
G1 X100.62 Y108.724 E.24924
G1 X100.344 Y108.998 E.01264
G1 X95.027 Y103.682 E.24371
G1 X94.751 Y103.957 E.01264
G1 X100.067 Y109.273 E.24368
G1 X99.79 Y109.548 E.01264
G1 X94.476 Y104.233 E.24365
G1 X94.2 Y104.508 E.01264
G1 X99.514 Y109.822 E.24362
G1 X99.237 Y110.097 E.01264
G1 X93.924 Y104.784 E.24358
G1 X93.648 Y105.059 E.01264
M73 P18 R3
G1 X98.96 Y110.372 E.24355
G1 X98.684 Y110.646 E.01264
G1 X93.372 Y105.334 E.24352
G1 X93.096 Y105.61 E.01264
G1 X98.407 Y110.921 E.24349
G1 X98.131 Y111.196 E.01264
G1 X92.82 Y105.885 E.24346
G1 X92.544 Y106.161 E.01264
G1 X97.854 Y111.471 E.24342
G1 X97.577 Y111.745 E.01264
G1 X92.268 Y106.436 E.24339
G1 X91.992 Y106.711 E.01264
M73 P19 R3
G1 X97.301 Y112.02 E.24336
G1 X97.024 Y112.295 E.01264
G1 X91.716 Y106.987 E.24333
G1 X91.44 Y107.262 E.01264
G1 X96.747 Y112.569 E.24329
G1 X96.471 Y112.844 E.01264
G1 X91.164 Y107.538 E.24326
G1 X90.888 Y107.813 E.01264
G1 X96.194 Y113.119 E.24323
G1 X95.918 Y113.393 E.01264
G1 X90.613 Y108.088 E.2432
G1 X90.327 Y108.354 E.01265
M73 P20 R3
G1 X95.641 Y113.668 E.2436
G1 X95.364 Y113.943 E.01264
G1 X89.908 Y108.486 E.25014
M204 P1000
G1 E-2.24 F4200
;WIPE_START
G1 F7200
G1 X91.071 Y109.65 E-.912
;WIPE_END
G1 E-.048 F4200
G1 Z.4 F720
G1 X88.735 Y102.658 F9000
G1 Z.2 F720
G1 E3.2 F2400
M204 P800
;TYPE:Perimeter
;WIDTH:0.431919
G1 F1200
G1 X88.746 Y102.662 E.00037
;WIDTH:0.390191
G1 X88.843 Y102.7 E.003
;WIDTH:0.348462
G1 X90.297 Y102.7 E.03696
;WIDTH:0.380589
G1 X90.455 Y102.668 E.00452
;WIDTH:0.412715
G1 X90.613 Y102.635 E.00495
G1 X90.851 Y102.269 E.01342
G1 X90.901 Y101.988 E.00881
G1 X90.901 Y102.973 E.03031
G1 X90.599 Y102.989 E.0093
;WIDTH:0.380589
G1 X90.297 Y103.005 E.00849
;WIDTH:0.348462
G1 X88.843 Y103.005 E.03696
;WIDTH:0.390191
G1 X88.705 Y102.985 E.00402
;WIDTH:0.431919
G1 X88.567 Y102.964 E.00451
;WIDTH:0.473647
G1 X88.429 Y102.943 E.00499
;WIDTH:0.515376
G1 X88.291 Y102.922 E.00548
;WIDTH:0.557104
G1 X88.154 Y102.901 E.00596
;WIDTH:0.598832
G1 X88.016 Y102.88 E.00644
G1 X87.878 Y102.901 E.00644
;WIDTH:0.557104
G1 X87.74 Y102.922 E.00596
;WIDTH:0.515376
G1 X87.602 Y102.943 E.00548
;WIDTH:0.473647
G1 X87.465 Y102.964 E.00499
;WIDTH:0.431919
G1 X87.327 Y102.985 E.00451
;WIDTH:0.390191
G1 X87.189 Y103.005 E.00402
;WIDTH:0.348462
G1 X85.734 Y103.005 E.03697
;WIDTH:0.380576
G1 X85.432 Y102.989 E.00849
;WIDTH:0.412689
G1 X85.13 Y102.973 E.00929
G1 X85.13 Y101.987 E.03032
G1 X85.181 Y102.269 E.00881
G1 X85.419 Y102.635 E.01343
G1 X85.576 Y102.668 E.00494
;WIDTH:0.380576
G1 X85.734 Y102.7 E.00452
;WIDTH:0.348462
G1 X87.189 Y102.7 E.03697
;WIDTH:0.353634
G1 X87.281 Y102.694 E.00238
;WIDTH:0.402674
G1 X87.379 Y102.65 E.00321
;WIDTH:0.451714
G1 X87.476 Y102.606 E.00364
;WIDTH:0.500753
G1 X87.574 Y102.562 E.00408
;WIDTH:0.549793
G1 X87.672 Y102.518 E.00452
;WIDTH:0.598832
G1 X87.77 Y102.474 E.00496
G1 X87.777 Y102.372 E.00469
;WIDTH:0.563442
G1 X87.784 Y102.271 E.00439
;WIDTH:0.528052
G1 X87.791 Y102.17 E.00409
;WIDTH:0.492661
G1 X87.791 Y96.06 E.22848
;WIDTH:0.529157
G1 X87.783 Y95.935 E.0051
;WIDTH:0.565652
G1 X87.776 Y95.809 E.00548
G1 X87.293 Y95.437 E.02648
G1 X88.733 Y95.438 E.06263
G1 X88.256 Y95.809 E.02627
M73 P21 R3
G1 X88.248 Y95.935 E.00548
;WIDTH:0.529157
G1 X88.241 Y96.06 E.0051
;WIDTH:0.492661
G1 X88.241 Y102.17 E.22848
;WIDTH:0.528052
G1 X88.248 Y102.271 E.00409
;WIDTH:0.563442
G1 X88.255 Y102.372 E.00439
;WIDTH:0.598832
G1 X88.262 Y102.474 E.00469
G1 X88.359 Y102.511 E.0048
;WIDTH:0.557104
G1 X88.456 Y102.549 E.00444
;WIDTH:0.515376
G1 X88.552 Y102.587 E.00408
;WIDTH:0.473647
G1 X88.649 Y102.624 E.00372
;WIDTH:0.431919
G1 X88.679 Y102.636 E.00105
M204 P1000
G1 X88.843 Y102.359 F9000
M204 P800
;TYPE:External perimeter
;WIDTH:0.419999
G1 F1200
G1 X90.297 Y102.359 E.04561
G1 X90.403 Y102.326 E.00347
G1 X90.483 Y102.203 E.00459
G1 X90.613 Y101.481 E.02302
G1 X91.275 Y101.481 E.02075
G1 X91.275 Y103.347 E.05851
G1 X84.757 Y103.347 E.20437
G1 X84.757 Y101.481 E.05851
G1 X85.419 Y101.481 E.02076
G1 X85.548 Y102.203 E.02302
G1 X85.628 Y102.326 E.0046
G1 X85.734 Y102.359 E.00347
G1 X87.189 Y102.359 E.04563
G1 X87.356 Y102.257 E.00612
G1 X87.378 Y102.17 E.00282
G1 X87.378 Y96.06 E.19156
G1 X87.362 Y95.986 E.00238
G1 X87.22 Y95.874 E.00567
G1 X86.591 Y95.77 E.01998
G1 X86.591 Y94.994 E.02432
G1 X89.441 Y94.994 E.08934
G1 X89.441 Y95.77 E.02432
G1 X88.812 Y95.874 E.01998
G1 X88.669 Y95.986 E.00567
G1 X88.654 Y96.06 E.00238
G1 X88.654 Y102.17 E.19156
G1 X88.66 Y102.218 E.00151
G1 X88.795 Y102.322 E.00534
M204 P1000
G1 X88.946 Y102.745 F9000
G1 E-2.24 F4200
;WIPE_START
G1 F7200
G1 X90.297 Y102.359 E-.83271
G1 X90.403 Y102.326 E-.06129
G1 X90.421 Y102.299 E-.018
;WIPE_END
G1 E-.048 F4200
G1 Z.4 F720
G1 X89.021 Y95.414 F9000
M73 P22 R3
G1 Z.2 F720
G1 E3.2 F2400
M204 P800
;TYPE:Perimeter
;WIDTH:0.553088
G1 F1200
G1 X88.733 Y95.438 E.01222
M204 P1000
G1 E-2.24 F4200
;WIPE_START
G1 F7200
G1 X89.021 Y95.414 E-.15965
;WIPE_END
G1 E-.80035 F4200
G1 Z.4 F720
G1 X87.011 Y95.414 F9000
G1 Z.2 F720
G1 E3.2 F2400
M204 P800
;WIDTH:0.552128
G1 F1200
G1 X87.293 Y95.437 E.01196
M204 P1000
G1 E-2.24 F4200
;WIPE_START
G1 F7200
G1 X87.011 Y95.414 E-.15651
;WIPE_END
G1 E-.80349 F4200
G1 Z.4 F720
G1 X103.231 Y101.521 F9000
G1 Z.2 F720
G1 E3.2 F2400
M204 P800
;WIDTH:0.583076
G1 F1200
G1 X103.54 Y101.178 E.02071
G1 X103.509 Y101.006 E.00783
;WIDTH:0.537714
G1 X103.479 Y100.835 E.00718
;WIDTH:0.492793
G1 X103.065 Y98.489 E.08912
G1 X102.994 Y98.188 E.01155
;WIDTH:0.456314
G1 X102.922 Y97.888 E.01061
G1 X102.887 Y97.58 E.01063
;WIDTH:0.492628
G1 X102.851 Y97.273 E.01157
;WIDTH:0.493067
G1 X102.437 Y94.927 E.08917
;WIDTH:0.538387
G1 X102.407 Y94.756 E.00718
;WIDTH:0.583707
G1 X102.377 Y94.584 E.00783
G1 X101.819 Y94.291 E.02831
G1 X102.56 Y94.176 E.03371
G1 X102.714 Y94.125 E.00728
;WIDTH:0.536731
G1 X102.867 Y94.074 E.00665
;WIDTH:0.489755
G1 X103.021 Y94.023 E.00601
;WIDTH:0.442779
G1 X103.175 Y93.972 E.00538
;WIDTH:0.395803
G1 X103.328 Y93.921 E.00475
;WIDTH:0.348827
G1 X105.894 Y93.469 E.06628
;WIDTH:0.348408
G1 X105.894 Y93.469 E.00001
;WIDTH:0.389981
G1 X106.16 Y93.443 E.00771
;WIDTH:0.431554
G1 X106.426 Y93.417 E.00863
;WIDTH:0.473126
G1 X106.692 Y93.392 E.00955
G1 X106.901 Y94.577 E.04305
G1 X106.79 Y94.596 E.00404
G1 X106.593 Y94.08 E.01975
G1 X106.39 Y93.814 E.01198
G1 X106.242 Y93.799 E.0053
;WIDTH:0.431553
G1 X106.095 Y93.784 E.00479
;WIDTH:0.38998
G1 X105.947 Y93.77 E.00428
;WIDTH:0.348827
G1 X103.381 Y94.223 E.06628
;WIDTH:0.354005
G1 X103.292 Y94.244 E.00238
;WIDTH:0.399946
G1 X103.206 Y94.301 E.00307
;WIDTH:0.445886
G1 X103.12 Y94.359 E.00346
;WIDTH:0.491827
G1 X103.034 Y94.416 E.00386
;WIDTH:0.537767
G1 X102.948 Y94.474 E.00425
;WIDTH:0.583707
G1 X102.862 Y94.531 E.00465
G1 X102.871 Y94.69 E.00715
;WIDTH:0.538387
G1 X102.881 Y94.849 E.00655
;WIDTH:0.493067
G1 X103.294 Y97.195 E.08917
;WIDTH:0.498895
G1 X103.318 Y97.297 E.00398
G1 X103.424 Y97.414 E.00597
;WIDTH:0.459447
G1 X103.53 Y97.53 E.00546
;WIDTH:0.446368
G1 X103.689 Y97.635 E.00638
;WIDTH:0.486955
G1 X103.815 Y97.671 E.00484
;WIDTH:0.527542
G1 X103.941 Y97.708 E.00528
G1 X103.835 Y97.785 E.00528
;WIDTH:0.486955
G1 X103.729 Y97.863 E.00484
;WIDTH:0.446368
G1 X103.616 Y98.016 E.00638
;WIDTH:0.456396
G1 X103.562 Y98.213 E.00704
;WIDTH:0.492793
G1 X103.508 Y98.41 E.00765
G1 X103.922 Y100.757 E.08912
;WIDTH:0.537714
G1 X103.968 Y100.909 E.00655
;WIDTH:0.583076
G1 X104.013 Y101.062 E.00715
G1 X104.132 Y101.084 E.00542
;WIDTH:0.536168
G1 X104.251 Y101.107 E.00495
;WIDTH:0.48926
G1 X104.369 Y101.129 E.00448
;WIDTH:0.442352
G1 X104.488 Y101.152 E.00401
;WIDTH:0.395444
G1 X104.606 Y101.174 E.00354
;WIDTH:0.348535
G1 X107.044 Y100.744 E.06289
;WIDTH:0.390083
G1 X107.177 Y100.68 E.00428
;WIDTH:0.431665
M73 P23 R3
G1 X107.311 Y100.616 E.00479
;WIDTH:0.473247
G1 X107.444 Y100.551 E.00531
G1 X107.544 Y100.232 E.01196
G1 X107.553 Y99.68 E.01975
G1 X107.664 Y99.66 E.00404
G1 X107.675 Y99.721 E.00221
G1 X107.873 Y100.845 E.04083
G1 X107.473 Y100.937 E.01468
;WIDTH:0.431665
G1 X107.285 Y100.991 E.00632
;WIDTH:0.390083
G1 X107.097 Y101.045 E.00565
;WIDTH:0.348535
G1 X104.66 Y101.475 E.06289
;WIDTH:0.395444
G1 X104.498 Y101.48 E.00474
;WIDTH:0.442352
G1 X104.336 Y101.485 E.00537
;WIDTH:0.48926
G1 X104.174 Y101.489 E.006
;WIDTH:0.536168
G1 X104.013 Y101.494 E.00663
;WIDTH:0.583076
G1 X103.851 Y101.499 E.00727
G1 X103.121 Y101.642 E.0334
