; generated by PrusaSlicer 2.5.0+win64 on 2023-03-09 at 11:58:08 UTC


;
;

;
;
; 

; external perimeters extrusion width = 0.45mm
; perimeters extrusion width = 0.45mm
; infill extrusion width = 0.45mm
; solid infill extrusion width = 0.45mm
; top infill extrusion width = 0.40mm
; first layer extrusion width = 0.42mm

M73 P0 R45
M201 X2500 Y2500 Z400 E5000 ; sets maximum accelerations, mm/sec^2
M203 X180 Y180 Z12 E80 ; sets maximum feedrates, mm / sec
M204 P1250 R1250 T2500 ; sets acceleration (P, T) and retract acceleration (R), mm/sec^2
M205 X8.00 Y8.00 Z2.00 E10.00 ; sets the jerk limits, mm/sec
M205 S0 T0 ; sets the minimum extruding and travel feed rate, mm/sec
M107
;TYPE:Custom
M862.3 P "MINI" ; printer model check
G90 ; use absolute coordinates
M83 ; extruder relative mode
M104 S170 ; set extruder temp for bed leveling
M140 S60 ; set bed temp
M109 R170 ; wait for bed leveling temp
M190 S60 ; wait for bed temp
M204 T1250 ; set travel acceleration
G28 ; home all without mesh bed level
G29 ; mesh bed leveling 
M204 T2500 ; restore travel acceleration
M104 S215 ; set extruder temp
G92 E0
G1 Y-2 X179 F2400
G1 Z3 F720
M109 S215 ; wait for extruder temp

; intro line
G1 X170 F1000
G1 Z0.2 F720
G1 X110 E8 F900
G1 X40 E10 F700
G92 E0

M221 S95 ; set flow
G21 ; set units to millimeters
G90 ; use absolute coordinates
M83 ; use relative distances for extrusion
M900 K0.2 ; Filament gcode LA 1.5
; ; Filament gcode LA 1.0
M107
;LAYER_CHANGE
;Z:0.2
;HEIGHT:0.2
;BEFORE_LAYER_CHANGE
G92 E0.0
;0.2


G1 E-3.2 F4200
G1 Z.2 F720
;AFTER_LAYER_CHANGE
;0.2
G1 Z.4
G1 X66.648 Y54.953 F9000
G1 Z.2 F720
G1 E3.2 F2400
M204 P800
;TYPE:Skirt/Brim
;WIDTH:0.42
G1 F1200
G1 X67.246 Y54.307 E.02759
G1 X67.99 Y53.838 E.02759
G1 X68.831 Y53.577 E.02759
G1 X69.4 Y53.523 E.01793
G1 X110.91 Y53.543 E1.30153
G1 X112.01 Y53.838 E.03569
G1 X112.547 Y54.148 E.01946
G1 X113.193 Y54.746 E.02759
G1 X113.762 Y55.732 E.03569
G1 X113.977 Y56.9 E.03725
G1 X113.977 Y123.1 E2.07565
G1 X113.762 Y124.268 E.03725
G1 X113.352 Y125.047 E.02759
G1 X112.754 Y125.693 E.02759
G1 X112.01 Y126.162 E.02759
G1 X111.169 Y126.423 E.02759
G1 X110.6 Y126.477 E.01793
G1 X69.4 Y126.477 E1.2918
G1 X68.232 Y126.262 E.03725
G1 X67.453 Y125.852 E.02759
G1 X66.807 Y125.254 E.02759
G1 X66.338 Y124.51 E.02759
G1 X66.077 Y123.669 E.02759
G1 X66.023 Y123.1 E.01792
G1 X66.023 Y56.9 E2.07565
G1 X66.238 Y55.732 E.03725
M73 P1 R45
G1 X66.62 Y55.006 E.02571
M204 P1000
; printing object esp-stat-top v4.stl id:0 copy 0
G1 E-2.24 F4200
;WIPE_START
G1 F7200
G1 X67.246 Y54.307 E-.51986
G1 X67.844 Y53.93 E-.39214
;WIPE_END
G1 E-.048 F4200
G1 Z.4 F720
G1 X79.457 Y59.784 F9000
G1 Z.2 F720
G1 E3.2 F2400
M204 P800
;TYPE:Perimeter
;WIDTH:0.419999
G1 F1200
G1 X79.533 Y59.796 E.00241
G1 X79.956 Y59.992 E.01462
G1 X80.314 Y60.291 E.01462
G1 X80.582 Y60.672 E.01462
G1 X80.742 Y61.11 E.01462
G1 X80.787 Y61.485 E.01187
G1 X80.787 Y66.515 E.15768
G1 X80.704 Y67.033 E.01647
G1 X80.508 Y67.456 E.01462
G1 X80.209 Y67.814 E.01462
G1 X79.918 Y68.035 E.01146
G1 X79.455 Y68.23 E.01577
G1 X79.015 Y68.287 E.01392
G1 X72.985 Y68.287 E.18904
G1 X72.467 Y68.204 E.01647
G1 X72.044 Y68.008 E.01462
G1 X71.686 Y67.709 E.01462
G1 X71.418 Y67.328 E.01462
G1 X71.258 Y66.89 E.01462
G1 X71.213 Y66.515 E.01187
G1 X71.213 Y61.485 E.15768
G1 X71.296 Y60.967 E.01647
G1 X71.492 Y60.544 E.01462
G1 X71.791 Y60.186 E.01462
G1 X72.172 Y59.918 E.01462
G1 X72.61 Y59.758 E.01462
G1 X72.985 Y59.713 E.01187
G1 X79.015 Y59.713 E.18904
G1 X79.398 Y59.774 E.01218
M204 P1000
G1 X79.366 Y60.141 F9000
M204 P800
;TYPE:External perimeter
G1 F1200
G1 X79.726 Y60.291 E.01226
G1 X80.015 Y60.52 E.01155
G1 X80.234 Y60.816 E.01155
G1 X80.369 Y61.159 E.01154
G1 X80.41 Y61.485 E.01033
G1 X80.41 Y66.515 E.15768
G1 X80.356 Y66.889 E.01186
G1 X80.209 Y67.226 E.01155
G1 X79.98 Y67.515 E.01155
G1 X79.714 Y67.718 E.01049
G1 X79.341 Y67.869 E.0126
G1 X79.015 Y67.91 E.01033
G1 X72.985 Y67.91 E.18904
G1 X72.611 Y67.856 E.01186
G1 X72.274 Y67.709 E.01155
G1 X71.985 Y67.48 E.01155
G1 X71.766 Y67.184 E.01155
G1 X71.631 Y66.841 E.01155
G1 X71.59 Y66.515 E.01033
G1 X71.59 Y61.485 E.15768
G1 X71.644 Y61.111 E.01186
G1 X71.791 Y60.774 E.01155
G1 X72.02 Y60.485 E.01155
G1 X72.316 Y60.266 E.01155
G1 X72.659 Y60.131 E.01154
G1 X72.985 Y60.09 E.01033
G1 X79.015 Y60.09 E.18904
G1 X79.306 Y60.132 E.00924
M204 P1000
G1 X79.643 Y59.865 F9000
G1 E-2.24 F4200
;WIPE_START
G1 F7200
G1 X79.726 Y60.291 E-.24899
G1 X80.015 Y60.52 E-.20405
G1 X80.234 Y60.816 E-.20405
G1 X80.369 Y61.159 E-.20405
G1 X80.38 Y61.25 E-.05085
;WIPE_END
G1 E-.048 F4200
G1 Z.4 F720
G1 X99.742 Y67.756 F9000
G1 Z.2 F720
G1 E3.2 F2400
M204 P800
;TYPE:Perimeter
G1 F1200
G1 X99.686 Y67.709 E.00228
G1 X99.418 Y67.328 E.01462
G1 X99.258 Y66.89 E.01462
G1 X99.213 Y66.515 E.01187
G1 X99.213 Y61.485 E.15768
G1 X99.296 Y60.967 E.01647
G1 X99.492 Y60.544 E.01462
G1 X99.791 Y60.186 E.01462
G1 X100.172 Y59.918 E.01462
G1 X100.61 Y59.758 E.01462
G1 X100.985 Y59.713 E.01187
G1 X107.015 Y59.713 E.18904
G1 X107.533 Y59.796 E.01646
G1 X107.956 Y59.992 E.01462
G1 X108.314 Y60.291 E.01462
G1 X108.582 Y60.672 E.01462
G1 X108.742 Y61.11 E.01462
G1 X108.787 Y61.485 E.01187
G1 X108.787 Y66.515 E.15768
G1 X108.704 Y67.033 E.01647
G1 X108.508 Y67.456 E.01462
G1 X108.209 Y67.814 E.01462
G1 X107.828 Y68.082 E.01462
G1 X107.39 Y68.242 E.01462
G1 X107.015 Y68.287 E.01187
G1 X100.985 Y68.287 E.18904
G1 X100.491 Y68.214 E.01568
G1 X100.044 Y68.008 E.01542
G1 X99.788 Y67.795 E.01045
M204 P1000
G1 X99.975 Y67.466 F9000
M204 P800
;TYPE:External perimeter
G1 F1200
G1 X99.766 Y67.184 E.01101
G1 X99.631 Y66.841 E.01155
G1 X99.59 Y66.515 E.01033
G1 X99.59 Y61.485 E.15768
G1 X99.644 Y61.111 E.01186
G1 X99.791 Y60.774 E.01155
G1 X100.02 Y60.485 E.01155
G1 X100.316 Y60.266 E.01155
G1 X100.659 Y60.131 E.01154
G1 X100.985 Y60.09 E.01033
G1 X107.015 Y60.09 E.18904
G1 X107.389 Y60.144 E.01186
G1 X107.726 Y60.291 E.01155
G1 X108.015 Y60.52 E.01155
G1 X108.234 Y60.816 E.01155
G1 X108.369 Y61.159 E.01155
G1 X108.41 Y61.485 E.01033
G1 X108.41 Y66.515 E.15768
G1 X108.356 Y66.889 E.01186
G1 X108.209 Y67.226 E.01155
G1 X107.98 Y67.515 E.01155
G1 X107.684 Y67.734 E.01155
G1 X107.341 Y67.869 E.01155
G1 X107.015 Y67.91 E.01033
G1 X100.985 Y67.91 E.18904
G1 X100.611 Y67.856 E.01186
G1 X100.273 Y67.709 E.01155
G1 X100.019 Y67.507 E.01019
M204 P1000
G1 X99.634 Y67.55 F9000
G1 E-2.24 F4200
;WIPE_START
G1 F7200
G1 X99.766 Y67.184 E-.2272
G1 X99.631 Y66.841 E-.20405
G1 X99.59 Y66.515 E-.18251
G1 X99.59 Y65.976 E-.29824
;WIPE_END
G1 E-.048 F4200
G1 Z.4 F720
G1 X69.254 Y123.246 F9000
G1 Z.2 F720
G1 E3.2 F2400
M204 P800
;TYPE:Perimeter
G1 F1200
G1 X69.187 Y123.048 E.00654
G1 X69.187 Y56.952 E2.07242
G1 X69.254 Y56.754 E.00654
G1 X69.452 Y56.687 E.00654
G1 X110.532 Y56.689 E1.28804
G1 X110.627 Y56.697 E.00299
G1 X110.762 Y56.776 E.0049
G1 X110.813 Y56.97 E.0063
G1 X110.813 Y123.048 E2.07184
G1 X110.746 Y123.246 E.00654
G1 X110.548 Y123.313 E.00654
G1 X108.198 Y123.313 E.07369
;WIDTH:0.464676
G1 X107.899 Y123.291 E.01052
;WIDTH:0.509352
G1 X107.6 Y123.268 E.01163
G1 X107.692 Y123.233 E.00384
;WIDTH:0.486744
G1 X107.979 Y123.107 E.01154
;WIDTH:0.453372
G1 X108.265 Y122.982 E.01067
;WIDTH:0.419999
G1 X108.786 Y122.638 E.01956
G1 X109.217 Y122.187 E.01956
G1 X109.537 Y121.651 E.01956
G1 X109.729 Y121.058 E.01956
M73 P1 R44
G1 X109.785 Y120.437 E.01956
G1 X109.701 Y119.819 E.01956
G1 X109.482 Y119.235 E.01956
G1 X109.138 Y118.714 E.01956
G1 X108.687 Y118.283 E.01956
G1 X108.151 Y117.963 E.01956
G1 X107.558 Y117.771 E.01956
G1 X106.937 Y117.715 E.01956
G1 X106.357 Y117.793 E.01833
G1 X105.735 Y118.018 E.02075
G1 X105.214 Y118.362 E.01956
G1 X104.783 Y118.813 E.01956
G1 X104.463 Y119.349 E.01956
G1 X104.271 Y119.942 E.01956
G1 X104.215 Y120.563 E.01956
G1 X104.299 Y121.181 E.01956
G1 X104.518 Y121.765 E.01956
G1 X104.862 Y122.286 E.01956
G1 X105.313 Y122.717 E.01956
G1 X105.849 Y123.037 E.01956
;WIDTH:0.461997
G1 X106.143 Y123.154 E.01104
;WIDTH:0.503994
G1 X106.437 Y123.271 E.01214
G1 X106.12 Y123.292 E.01221
;WIDTH:0.461997
G1 X105.802 Y123.313 E.0111
;WIDTH:0.419999
G1 X74.198 Y123.313 E.99091
;WIDTH:0.464676
G1 X73.899 Y123.291 E.01052
;WIDTH:0.509352
G1 X73.6 Y123.268 E.01163
G1 X73.692 Y123.233 E.00384
;WIDTH:0.486744
G1 X73.979 Y123.107 E.01154
;WIDTH:0.453372
G1 X74.265 Y122.982 E.01067
;WIDTH:0.419999
G1 X74.786 Y122.638 E.01956
G1 X75.217 Y122.187 E.01956
G1 X75.517 Y121.685 E.01833
G1 X75.729 Y121.058 E.02075
G1 X75.785 Y120.437 E.01956
G1 X75.701 Y119.819 E.01956
G1 X75.482 Y119.235 E.01956
G1 X75.138 Y118.714 E.01956
G1 X74.687 Y118.283 E.01956
G1 X74.151 Y117.963 E.01956
G1 X73.558 Y117.771 E.01956
G1 X72.937 Y117.715 E.01956
G1 X72.357 Y117.793 E.01833
G1 X71.735 Y118.018 E.02075
G1 X71.214 Y118.362 E.01956
G1 X70.783 Y118.813 E.01956
G1 X70.463 Y119.349 E.01956
G1 X70.271 Y119.942 E.01956
G1 X70.215 Y120.563 E.01956
G1 X70.299 Y121.181 E.01956
G1 X70.518 Y121.765 E.01956
G1 X70.862 Y122.286 E.01956
G1 X71.313 Y122.717 E.01956
G1 X71.849 Y123.037 E.01956
;WIDTH:0.461997
G1 X72.143 Y123.154 E.01104
;WIDTH:0.503994
G1 X72.437 Y123.271 E.01214
G1 X72.12 Y123.292 E.01221
;WIDTH:0.461997
G1 X71.802 Y123.313 E.0111
;WIDTH:0.419999
G1 X69.452 Y123.313 E.07369
G1 X69.311 Y123.265 E.00465
M204 P1000
G1 X68.892 Y123.393 F9000
M204 P800
;TYPE:External perimeter
G1 F1200
G1 X68.81 Y123.073 E.01036
G1 X68.81 Y56.927 E2.07397
G1 X68.892 Y56.607 E.01036
G1 X69.107 Y56.392 E.00952
G1 X69.427 Y56.31 E.01036
G1 X110.532 Y56.312 E1.28881
G1 X110.752 Y56.334 E.00693
G1 X111.015 Y56.485 E.00952
G1 X111.137 Y56.677 E.00715
G1 X111.19 Y56.97 E.00932
G1 X111.19 Y123.073 E2.07261
G1 X111.108 Y123.393 E.01036
M73 P2 R44
G1 X110.893 Y123.608 E.00952
G1 X110.573 Y123.69 E.01036
G1 X69.427 Y123.69 E1.29011
G1 X69.107 Y123.608 E.01036
G1 X68.935 Y123.436 E.00764
M204 P1000
G1 X69.058 Y123.107 F9000
G1 E-2.24 F4200
;WIPE_START
G1 F7200
G1 X68.81 Y123.073 E-.21243
G1 X68.81 Y121.811 E-.69958
;WIPE_END
G1 E-.048 F4200
G1 Z.4 F720
G1 X106.51 Y118.147 F9000
G1 Z.2 F720
G1 E3.2 F2400
M204 P800
G1 F1200
G1 X106.979 Y118.09 E.0148
G1 X107.516 Y118.146 E.01692
G1 X108.027 Y118.319 E.01692
G1 X108.486 Y118.602 E.01692
G1 X108.871 Y118.981 E.01692
G1 X109.162 Y119.435 E.01692
G1 X109.345 Y119.943 E.01692
G1 X109.411 Y120.5 E.01758
G1 X109.354 Y121.016 E.01627
G1 X109.181 Y121.527 E.01692
G1 X108.898 Y121.986 E.01692
G1 X108.519 Y122.371 E.01692
G1 X108.065 Y122.662 E.01692
G1 X107.557 Y122.845 E.01692
G1 X107.021 Y122.91 E.01692
G1 X106.484 Y122.854 E.01692
G1 X105.973 Y122.681 E.01692
G1 X105.514 Y122.398 E.01692
G1 X105.129 Y122.019 E.01692
G1 X104.838 Y121.565 E.01692
G1 X104.655 Y121.057 E.01692
G1 X104.59 Y120.521 E.01692
G1 X104.646 Y119.984 E.01692
G1 X104.819 Y119.473 E.01692
G1 X105.102 Y119.014 E.01692
G1 X105.481 Y118.629 E.01692
G1 X105.935 Y118.338 E.01693
G1 X106.452 Y118.159 E.01714
M204 P1000
G1 X106.627 Y117.764 F9000
G1 E-2.24 F4200
;WIPE_START
G1 F7200
G1 X106.979 Y118.09 E-.29452
G1 X107.516 Y118.146 E-.29911
G1 X108.027 Y118.319 E-.2991
G1 X108.056 Y118.338 E-.01927
;WIPE_END
G1 E-.048 F4200
G1 Z.4 F720
G1 X107.6 Y123.268 F9000
G1 Z.2 F720
G1 E3.2 F2400
M204 P800
;TYPE:Perimeter
;WIDTH:0.509352
G1 F1200
G1 X107.332 Y123.284 E.0104
;WIDTH:0.478719
G1 X107.065 Y123.299 E.00971
;WIDTH:0.47604
G1 X106.751 Y123.285 E.01131
;WIDTH:0.503994
G1 X106.437 Y123.271 E.01204
M204 P1000
G1 E-2.24 F4200
;WIPE_START
G1 F7200
G1 X106.751 Y123.285 E-.17406
G1 X107.065 Y123.299 E-.17406
G1 X107.332 Y123.284 E-.14853
G1 X107.6 Y123.268 E-.14853
;WIPE_END
G1 E-.31481 F4200
G1 Z.4 F720
G1 X72.512 Y118.146 F9000
G1 Z.2 F720
G1 E3.2 F2400
M204 P800
;TYPE:External perimeter
;WIDTH:0.419999
G1 F1200
G1 X72.979 Y118.09 E.01474
G1 X73.516 Y118.146 E.01692
G1 X74.027 Y118.319 E.01692
G1 X74.486 Y118.602 E.01692
G1 X74.871 Y118.981 E.01692
G1 X75.162 Y119.435 E.01692
G1 X75.345 Y119.943 E.01692
G1 X75.41 Y120.479 E.01692
G1 X75.354 Y121.016 E.01693
G1 X75.163 Y121.556 E.01796
G1 X74.898 Y121.986 E.01585
G1 X74.519 Y122.371 E.01692
G1 X74.065 Y122.662 E.01692
G1 X73.557 Y122.845 E.01692
G1 X73.021 Y122.91 E.01692
G1 X72.484 Y122.854 E.01692
G1 X71.973 Y122.681 E.01692
G1 X71.514 Y122.398 E.01692
G1 X71.129 Y122.019 E.01692
G1 X70.838 Y121.565 E.01692
G1 X70.655 Y121.057 E.01692
G1 X70.59 Y120.521 E.01692
G1 X70.646 Y119.984 E.01692
G1 X70.819 Y119.473 E.01692
G1 X71.102 Y119.014 E.01692
G1 X71.481 Y118.629 E.01692
G1 X71.935 Y118.338 E.01693
G1 X72.454 Y118.158 E.0172
M204 P1000
G1 X72.63 Y117.764 F9000
G1 E-2.24 F4200
;WIPE_START
G1 F7200
G1 X72.979 Y118.09 E-.29341
G1 X73.516 Y118.146 E-.29911
G1 X74.027 Y118.319 E-.2991
G1 X74.058 Y118.339 E-.02038
;WIPE_END
G1 E-.048 F4200
G1 Z.4 F720
G1 X73.6 Y123.268 F9000
G1 Z.2 F720
G1 E3.2 F2400
M204 P800
;TYPE:Perimeter
;WIDTH:0.509352
G1 F1200
G1 X73.332 Y123.284 E.0104
;WIDTH:0.478718
G1 X73.065 Y123.299 E.00971
;WIDTH:0.476039
G1 X72.751 Y123.285 E.01131
;WIDTH:0.503994
G1 X72.437 Y123.271 E.01204
M204 P1000
G1 E-2.24 F4200
;WIPE_START
G1 F7200
G1 X72.751 Y123.285 E-.17406
G1 X73.065 Y123.299 E-.17406
G1 X73.332 Y123.284 E-.14853
G1 X73.6 Y123.268 E-.14853
;WIPE_END
G1 E-.31481 F4200
G1 Z.4 F720
G1 X109.926 Y56.802 F9000
G1 Z.2 F720
G1 E3.2 F2400
M204 P800
;TYPE:Solid infill
;WIDTH:0.420458
G1 F1200
G1 X110.52 Y57.396 E.02636
G1 X110.52 Y57.93 E.01676
G1 X109.562 Y56.972 E.04253
G1 X109.028 Y56.972 E.01676
G1 X110.52 Y58.464 E.06624
G1 X110.52 Y58.998 E.01676
G1 X108.494 Y56.971 E.08995
G1 X107.96 Y56.971 E.01676
G1 X110.52 Y59.532 E.11366
G1 X110.52 Y60.066 E.01676
G1 X107.426 Y56.971 E.13737
G1 X106.892 Y56.971 E.01676
G1 X110.52 Y60.6 E.16107
G1 X110.52 Y61.134 E.01676
G1 X106.358 Y56.971 E.18478
G1 X105.824 Y56.971 E.01676
G1 X110.52 Y61.668 E.20849
G1 X110.52 Y62.202 E.01676
G1 X105.29 Y56.971 E.2322
G1 X104.756 Y56.971 E.01676
G1 X107.237 Y59.452 E.11013
G1 X106.687 Y59.436 E.01727
G1 X104.222 Y56.971 E.10943
G1 X103.688 Y56.971 E.01676
G1 X106.153 Y59.436 E.1094
G1 X105.618 Y59.435 E.01678
G1 X103.154 Y56.971 E.10938
G1 X102.62 Y56.971 E.01676
G1 X105.084 Y59.434 E.10935
G1 X104.549 Y59.434 E.01678
G1 X102.087 Y56.971 E.10933
G1 X101.553 Y56.971 E.01676
G1 X104.015 Y59.433 E.10931
G1 X103.48 Y59.433 E.01678
G1 X101.019 Y56.971 E.10928
G1 X100.485 Y56.971 E.01676
G1 X102.946 Y59.432 E.10926
G1 X102.411 Y59.432 E.01678
G1 X99.951 Y56.971 E.10923
G1 X99.417 Y56.971 E.01676
G1 X101.877 Y59.431 E.10921
G1 X101.342 Y59.43 E.01678
G1 X98.883 Y56.971 E.10919
G1 X98.349 Y56.971 E.01676
G1 X100.826 Y59.448 E.10998
G1 X100.534 Y59.483 E.00923
G1 X100.374 Y59.53 E.00526
G1 X97.815 Y56.971 E.11359
G1 X97.281 Y56.971 E.01676
G1 X100.002 Y59.692 E.12078
G1 X99.686 Y59.91 E.01205
G1 X96.747 Y56.971 E.13048
G1 X96.213 Y56.971 E.01676
G1 X99.418 Y60.176 E.14228
G1 X99.198 Y60.49 E.01204
G1 X95.679 Y56.971 E.15623
G1 X95.145 Y56.971 E.01676
G1 X99.034 Y60.86 E.17264
G1 X98.978 Y61.067 E.00675
G1 X98.95 Y61.309 E.00765
G1 X94.611 Y56.971 E.19261
G1 X94.077 Y56.971 E.01676
G1 X98.93 Y61.824 E.21544
G1 X98.93 Y62.358 E.01677
G1 X93.543 Y56.971 E.23916
G1 X93.01 Y56.971 E.01676
G1 X98.931 Y62.892 E.26287
G1 X98.931 Y63.426 E.01677
G1 X92.476 Y56.971 E.28658
G1 X91.942 Y56.971 E.01676
G1 X98.931 Y63.96 E.31029
G1 X98.931 Y64.494 E.01677
G1 X91.408 Y56.971 E.334
G1 X90.874 Y56.971 E.01676
G1 X98.931 Y65.028 E.35772
G1 X98.931 Y65.562 E.01677
G1 X90.34 Y56.971 E.38143
G1 X89.806 Y56.971 E.01676
G1 X98.932 Y66.096 E.40514
G1 X98.942 Y66.641 E.01708
G1 X89.102 Y56.801 E.43683
M204 P1000
G1 E-2.24 F4200
;WIPE_START
G1 F7200
G1 X90.266 Y57.965 E-.912
;WIPE_END
G1 E-.048 F4200
G1 Z.4 F720
G1 X110.69 Y62.905 F9000
G1 Z.2 F720
G1 E3.2 F2400
M204 P800
G1 F1200
G1 X109.048 Y61.263 E.07291
G1 X109.064 Y61.813 E.01727
G1 X110.521 Y63.27 E.06467
G1 X110.521 Y63.804 E.01676
G1 X109.065 Y62.348 E.06464
G1 X109.065 Y62.882 E.01678
G1 X110.521 Y64.338 E.06462
G1 X110.521 Y64.872 E.01676
G1 X109.066 Y63.417 E.06459
G1 X109.067 Y63.951 E.01678
G1 X110.521 Y65.406 E.06456
G1 X110.521 Y65.94 E.01676
G1 X109.067 Y64.486 E.06454
G1 X109.068 Y65.021 E.01678
G1 X110.521 Y66.474 E.06451
