; generated by PrusaSlicer 2.5.0+win64 on 2023-03-09 at 17:52:10 UTC


;
;

;
;
; 

; external perimeters extrusion width = 0.45mm
; perimeters extrusion width = 0.45mm
; infill extrusion width = 0.45mm
; solid infill extrusion width = 0.45mm
; top infill extrusion width = 0.40mm
; support material extrusion width = 0.35mm
; first layer extrusion width = 0.42mm

M73 P0 R30
M201 X2500 Y2500 Z400 E5000 ; sets maximum accelerations, mm/sec^2
M203 X180 Y180 Z12 E80 ; sets maximum feedrates, mm / sec
M204 P1250 R1250 T2500 ; sets acceleration (P, T) and retract acceleration (R), mm/sec^2
M205 X8.00 Y8.00 Z2.00 E10.00 ; sets the jerk limits, mm/sec
M205 S0 T0 ; sets the minimum extruding and travel feed rate, mm/sec
M107
;TYPE:Custom
M862.3 P "MINI" ; printer model check
G90 ; use absolute coordinates
M83 ; extruder relative mode
M104 S170 ; set extruder temp for bed leveling
M140 S60 ; set bed temp
M109 R170 ; wait for bed leveling temp
M190 S60 ; wait for bed temp
M204 T1250 ; set travel acceleration
G28 ; home all without mesh bed level
G29 ; mesh bed leveling 
M204 T2500 ; restore travel acceleration
M104 S215 ; set extruder temp
G92 E0
G1 Y-2 X179 F2400
G1 Z3 F720
M109 S215 ; wait for extruder temp

; intro line
G1 X170 F1000
M73 P0 R29
G1 Z0.2 F720
G1 X110 E8 F900
G1 X40 E10 F700
G92 E0

M221 S95 ; set flow
G21 ; set units to millimeters
G90 ; use absolute coordinates
M83 ; use relative distances for extrusion
M900 K0.2 ; Filament gcode LA 1.5
; ; Filament gcode LA 1.0
M107
;LAYER_CHANGE
;Z:0.2
;HEIGHT:0.2
;BEFORE_LAYER_CHANGE
G92 E0.0
;0.2


G1 E-3.2 F4200
G1 Z.2 F720
;AFTER_LAYER_CHANGE
;0.2
G1 Z.4
G1 X64.015 Y52.193 F9000
G1 Z.2 F720
G1 E3.2 F2400
M204 P800
;TYPE:Skirt/Brim
;WIDTH:0.42
G1 F1200
G1 X65.06 Y51.317 E.04278
G1 X66 Y51.123 E.03008
G1 X114 Y51.123 E1.50501
G1 X115.307 Y51.515 E.04278
M73 P1 R29
G1 X116.183 Y52.56 E.04278
G1 X116.377 Y53.5 E.03008
G1 X116.377 Y126.5 E2.28886
G1 X115.985 Y127.807 E.04278
G1 X114.94 Y128.683 E.04278
G1 X114 Y128.877 E.03008
G1 X66 Y128.877 E1.50501
G1 X64.693 Y128.485 E.04278
G1 X63.817 Y127.44 E.04278
G1 X63.623 Y126.5 E.03008
G1 X63.623 Y53.5 E2.28886
G1 X63.997 Y52.25 E.0409
M204 P1000
; printing object top v2.stl id:0 copy 0
G1 E-2.24 F4200
;WIPE_START
G1 F7200
G1 X65.06 Y51.317 E-.78411
G1 X65.286 Y51.27 E-.12789
;WIPE_END
G1 E-.048 F4200
G1 Z.4 F720
G1 X76.2 Y72.907 F9000
G1 Z.2 F720
G1 E3.2 F2400
M204 P800
;TYPE:Support material interface
;WIDTH:0.35
G1 F1200
G1 X75.994 Y73.11 E.00737
G1 X76.309 Y72.956 E.00894
G1 X76.309 Y72.799 E.004
G1 X76.816 Y72.298 E.01821
G1 X76.816 Y72.707 E.01046
G1 X77.323 Y72.459 E.01442
G1 X77.323 Y71.796 E.01691
G1 X77.83 Y71.295 E.01821
G1 X77.83 Y72.21 E.02337
G1 X78.337 Y71.962 E.01442
G1 X78.337 Y70.794 E.02983
G1 X78.844 Y70.293 E.01821
G1 X78.844 Y71.713 E.03628
G1 X79.351 Y71.465 E.01442
G1 X79.351 Y69.791 E.04274
G1 X79.858 Y69.29 E.01821
G1 X79.858 Y71.308 E.05153
G1 X79.987 Y71.33 E.00332
G1 X80.366 Y71.708 E.01368
G1 X80.366 Y68.789 E.07455
G1 X80.873 Y68.287 E.01821
G1 X80.873 Y72.215 E.10029
G1 X81.38 Y72.722 E.01831
G1 X81.38 Y67.786 E.12604
G1 X81.887 Y67.285 E.01821
G1 X81.887 Y73.229 E.15178
G1 X82.394 Y73.736 E.01831
G1 X82.394 Y66.784 E.17753
G1 X82.901 Y66.282 E.01821
G1 X82.901 Y74.243 E.20327
G1 X83.408 Y74.75 E.01831
G1 X83.408 Y65.781 E.22901
G1 X83.884 Y65.311 E.01708
G1 X83.915 Y65.342 E.00113
G1 X83.915 Y75.198 E.25166
G1 X84.422 Y74.691 E.01831
G1 X84.422 Y65.849 E.22577
G1 X84.929 Y66.356 E.01831
G1 X84.929 Y74.184 E.19988
G1 X85.436 Y73.677 E.01831
G1 X85.436 Y66.863 E.17399
G1 X85.943 Y67.37 E.01831
G1 X85.943 Y73.17 E.14809
G1 X86.45 Y72.663 E.01831
G1 X86.45 Y67.877 E.1222
G1 X86.958 Y68.385 E.01831
G1 X86.958 Y72.156 E.09631
G1 X87.465 Y71.649 E.01831
G1 X87.465 Y68.892 E.07041
G1 X87.972 Y69.399 E.01831
G1 X87.972 Y71.143 E.04452
G1 X88.479 Y70.636 E.01831
G1 X88.479 Y69.906 E.01863
G1 X88.844 Y70.271 E.01317
G1 X88.587 Y70.527 E.00925
M204 P1000
G1 E-2.24 F4200
;WIPE_START
G1 F7200
M73 P2 R29
G1 X88.844 Y70.271 E-.20079
G1 X88.479 Y69.906 E-.28593
G1 X88.479 Y70.636 E-.40431
G1 X88.452 Y70.662 E-.02097
;WIPE_END
G1 E-.048 F4200
G1 Z.4 F720
G1 X90.398 Y70.63 F9000
G1 Z.2 F720
G1 E3.2 F2400
M204 P800
G1 F1200
G1 X90.039 Y70.27 E.01299
G1 X90.507 Y69.802 E.01692
G1 X90.507 Y70.738 E.02392
G1 X91.014 Y71.245 E.01831
G1 X91.014 Y69.294 E.04981
G1 X91.521 Y68.787 E.01831
G1 X91.521 Y71.752 E.07571
G1 X92.028 Y72.259 E.01831
G1 X92.028 Y68.28 E.1016
G1 X92.535 Y67.773 E.01831
G1 X92.535 Y72.766 E.12749
G1 X93.042 Y73.273 E.01831
G1 X93.042 Y67.266 E.15339
G1 X93.55 Y66.759 E.01831
G1 X93.55 Y73.78 E.17928
G1 X94.057 Y74.287 E.01831
G1 X94.057 Y66.252 E.20517
G1 X94.564 Y65.744 E.01831
G1 X94.564 Y74.794 E.23107
G1 X95.071 Y75.301 E.01831
G1 X95.071 Y65.237 E.25696
G1 X95.578 Y64.73 E.01831
G1 X95.578 Y75.808 E.28285
G1 X96.085 Y76.315 E.01831
G1 X96.085 Y64.223 E.30875
G1 X96.25 Y64.058 E.00595
G1 X96.592 Y64.399 E.01233
G1 X96.592 Y76.136 E.29968
G1 X97.099 Y75.629 E.01831
G1 X97.099 Y64.904 E.27385
G1 X97.606 Y65.409 E.01827
G1 X97.606 Y75.122 E.24801
G1 X98.113 Y74.615 E.01831
G1 X98.113 Y65.913 E.22218
G1 X98.62 Y66.418 E.01827
G1 X98.62 Y74.108 E.19635
G1 X99.127 Y73.601 E.01831
G1 X99.127 Y66.923 E.17051
G1 X99.635 Y67.428 E.01827
G1 X99.635 Y73.094 E.14468
G1 X100.142 Y72.587 E.01831
G1 X100.142 Y67.932 E.11885
G1 X100.649 Y68.437 E.01827
G1 X100.649 Y72.08 E.09301
G1 X101.156 Y71.573 E.01831
G1 X101.156 Y68.942 E.06718
G1 X101.663 Y69.445 E.01824
G1 X101.663 Y71.249 E.04607
G1 X101.711 Y71.241 E.00125
G1 X102.17 Y71.466 E.01305
G1 X102.17 Y69.943 E.0389
G1 X102.677 Y70.441 E.01815
G1 X102.677 Y71.714 E.03253
G1 X103.184 Y71.963 E.01442
G1 X103.184 Y70.939 E.02616
G1 X103.691 Y71.437 E.01815
G1 X103.691 Y72.212 E.01979
G1 X104.198 Y72.46 E.01442
G1 X104.198 Y71.935 E.01341
G1 X104.705 Y72.433 E.01815
G1 X104.705 Y72.709 E.00704
G1 X105.212 Y72.957 E.01442
G1 X105.212 Y72.931 E.00067
M204 P1000
G1 E-2.24 F4200
;WIPE_START
G1 F7200
G1 X105.212 Y72.957 E-.01464
G1 X104.705 Y72.709 E-.31294
G1 X104.705 Y72.433 E-.15289
G1 X104.198 Y71.935 E-.39385
G1 X104.198 Y72.003 E-.03767
;WIPE_END
G1 E-.048 F4200
G1 Z.4 F720
G1 X103.57 Y76.939 F9000
G1 Z.2 F720
G1 E3.2 F2400
M204 P800
G1 F1200
G1 X103.446 Y77.643 E.01824
G1 X103.691 Y77.729 E.00665
G1 X103.691 Y76.923 E.02058
G1 X104.198 Y77.013 E.01315
G1 X104.198 Y85.467 E.21587
G1 X103.691 Y85.378 E.01315
G1 X103.691 Y80.779 E.11743
G1 X103.953 Y79.297 E.03841
M204 P1000
G1 E-2.24 F4200
;WIPE_START
G1 F7200
G1 X103.691 Y80.779 E-.83372
G1 X103.691 Y80.92 E-.07828
;WIPE_END
G1 E-.048 F4200
G1 Z.4 F720
G1 X105.458 Y78.386 F9000
G1 Z.2 F720
G1 E3.2 F2400
M204 P800
G1 F1200
G1 X105.658 Y78.246 E.00624
G1 X105.719 Y78.257 E.00159
G1 X105.719 Y77.281 E.02492
G1 X106.227 Y77.371 E.01315
G1 X106.227 Y78.347 E.02492
G1 X106.734 Y78.436 E.01315
G1 X106.734 Y77.46 E.02492
G1 X107.241 Y77.549 E.01315
G1 X107.241 Y78.525 E.02492
G1 X107.748 Y78.615 E.01315
G1 X107.748 Y77.639 E.02492
G1 X108.104 Y77.702 E.00923
M204 P1000
G1 X109.269 Y77.907 F9000
M204 P800
G1 F1200
G1 X109.269 Y78.602 E.01775
G1 X109.044 Y79.881 E.03316
G1 X108.762 Y79.832 E.0073
G1 X108.762 Y77.818 E.05142
G1 X108.255 Y77.728 E.01315
G1 X108.255 Y79.742 E.05142
M204 P1000
G1 E-2.24 F4200
;WIPE_START
G1 F7200
G1 X108.255 Y78.096 E-.912
;WIPE_END
G1 E-.048 F4200
G1 Z.4 F720
G1 X106.814 Y82.035 F9000
G1 Z.2 F720
G1 E3.2 F2400
M204 P800
G1 F1200
G1 X106.944 Y81.302 E.01899
G1 X106.734 Y81.265 E.00544
G1 X106.734 Y82.109 E.02154
G1 X106.227 Y82.019 E.01315
G1 X106.227 Y81.176 E.02153
G1 X105.719 Y81.087 E.01315
G1 X105.719 Y81.93 E.02153
G1 X105.212 Y81.84 E.01315
G1 X105.212 Y80.997 E.02152
G1 X105.175 Y80.991 E.00097
G1 X104.974 Y80.703 E.00896
G1 X105.212 Y79.347 E.03518
G1 X105.212 Y77.192 E.05502
G1 X104.705 Y77.102 E.01315
G1 X104.705 Y82.222 E.13073
G1 X104.444 Y83.707 E.0385
M204 P1000
G1 X104.444 Y84.405 F9000
M204 P800
G1 F1200
G1 X104.547 Y84.552 E.00458
G1 X104.705 Y84.58 E.00411
G1 X104.705 Y85.557 E.02494
G1 X105.212 Y85.646 E.01315
G1 X105.212 Y84.67 E.02493
G1 X105.719 Y84.759 E.01315
G1 X105.719 Y85.735 E.02493
G1 X106.227 Y85.825 E.01315
G1 X106.227 Y84.849 E.02492
G1 X106.734 Y84.938 E.01315
G1 X106.734 Y85.914 E.02492
G1 X107.241 Y86.004 E.01315
G1 X107.241 Y84.877 E.02878
G1 X107.302 Y84.842 E.00181
G1 X107.603 Y84.053 E.02155
G1 X107.748 Y84.079 E.00375
G1 X107.748 Y86.093 E.05144
G1 X108.071 Y86.15 E.00839
G1 X108.255 Y85.11 E.02698
G1 X108.255 Y84.168 E.02404
G1 X108.416 Y84.196 E.00417
G1 X108.281 Y84.958 E.01976
M204 P1000
G1 E-2.24 F4200
;WIPE_START
G1 F7200
G1 X108.416 Y84.196 E-.42877
G1 X108.255 Y84.168 E-.09056
G1 X108.255 Y84.877 E-.39267
;WIPE_END
G1 E-.048 F4200
G1 Z.4 F720
G1 X102.17 Y85.11 F9000
G1 Z.2 F720
G1 E3.2 F2400
M204 P800
G1 F1200
G1 X102.17 Y84.878 E.00591
G1 X102.261 Y84.363 E.01337
G1 X102.677 Y84.367 E.01063
G1 X102.677 Y85.199 E.02126
G1 X103.184 Y85.288 E.01315
G1 X103.184 Y83.653 E.04177
G1 X103.445 Y82.171 E.03841
M204 P1000
G1 E-2.24 F4200
;WIPE_START
G1 F7200
G1 X103.184 Y83.653 E-.83373
G1 X103.184 Y83.794 E-.07827
;WIPE_END
G1 E-.048 F4200
G1 Z.4 F720
G1 X101.309 Y79.759 F9000
G1 Z.2 F720
G1 E3.2 F2400
M204 P800
G1 F1200
G1 X101.571 Y79.777 E.00672
G1 X101.519 Y80.527 E.01918
G1 X101.309 Y80.547 E.0054
M204 P1000
G1 X100.894 Y80.618 F9000
M204 P800
G1 F1200
G1 X100.928 Y80.583 E.00123
G1 X101.156 Y80.561 E.00584
G1 X101.156 Y79.748 E.02076
G1 X100.649 Y79.713 E.01298
G1 X100.649 Y81.7 E.05074
G1 X100.387 Y85.438 E.09568
M204 P1000
M204 P800
G1 X100.313 Y86.498 E.02713
M204 P1000
G1 E-2.24 F4200
;WIPE_START
G1 F7200
G1 X100.387 Y85.438 E-.58879
;WIPE_END
G1 E-.37121 F4200
G1 Z.4 F720
G1 X100.802 Y88.07 F9000
G1 Z.2 F720
G1 E3.2 F2400
M204 P800
G1 F1200
G1 X100.991 Y88.083 E.00483
G1 X101.043 Y87.334 E.01917
G1 X100.798 Y87.275 E.00643
M204 P1000
G1 X100.387 Y87.089 F9000
M204 P800
G1 F1200
G1 X100.466 Y87.196 E.00338
G1 X100.649 Y87.24 E.00481
G1 X100.649 Y88.059 E.02093
G1 X100.142 Y88.024 E.01298
G1 X100.142 Y79.677 E.21311
G1 X99.635 Y79.642 E.01298
G1 X99.635 Y87.988 E.21311
G1 X99.127 Y87.953 E.01298
G1 X99.127 Y85.543 E.06153
G1 X99.294 Y83.155 E.06113
G1 X99.127 Y82.964 E.00649
G1 X99.127 Y79.607 E.08571
G1 X98.694 Y79.576 E.0111
M73 P3 R29
G1 X98.62 Y79.784 E.00561
G1 X98.62 Y82.86 E.07856
G1 X98.378 Y83.015 E.00733
G1 X98.359 Y83.07 E.00147
M204 P1000
G1 X97.361 Y83.337 F9000
M204 P800
G1 F1200
G1 X97.099 Y84.074 E.01997
G1 X97.099 Y86.567 E.06366
G1 X96.83 Y87.315 E.02029
M204 P1000
G1 X95.932 Y87.729 F9000
M204 P800
G1 F1200
G1 X95.785 Y87.719 E.00376
G1 X95.578 Y86.729 E.02583
G1 X95.578 Y82.63 E.10465
G1 X95.316 Y81.39 E.03235
M204 P1000
G1 E-2.24 F4200
;WIPE_START
G1 F7200
G1 X95.578 Y82.63 E-.70213
G1 X95.578 Y83.009 E-.20987
;WIPE_END
G1 E-.048 F4200
G1 Z.4 F720
G1 X93.795 Y83.153 F9000
G1 Z.2 F720
G1 E3.2 F2400
M204 P800
G1 F1200
G1 X93.739 Y83.954 E.02052
M204 P1000
G1 E-2.24 F4200
;WIPE_START
G1 F7200
G1 X93.795 Y83.153 E-.44529
;WIPE_END
G1 E-.51471 F4200
G1 Z.4 F720
G1 X97.345 Y85.885 F9000
G1 Z.2 F720
G1 E3.2 F2400
M204 P800
G1 F1200
G1 X97.606 Y85.159 E.0197
G1 X97.606 Y82.644 E.06423
G1 X97.868 Y81.906 E.01997
M204 P1000
G1 E-2.24 F4200
;WIPE_START
G1 F7200
G1 X97.606 Y82.644 E-.43349
G1 X97.606 Y83.507 E-.47851
;WIPE_END
G1 E-.048 F4200
G1 Z.4 F720
G1 X98.375 Y80.476 F9000
G1 Z.2 F720
G1 E3.2 F2400
M204 P800
G1 F1200
G1 X98.113 Y81.214 E.01997
G1 X98.113 Y83.752 E.0648
G1 X97.852 Y84.477 E.0197
M204 P1000
G1 X96.853 Y84.726 F9000
M204 P800
G1 F1200
G1 X96.634 Y84.87 E.00669
G1 X96.592 Y84.867 E.00109
G1 X96.592 Y87.775 E.07425
G1 X96.085 Y87.74 E.01298
G1 X96.085 Y84.725 E.07698
G1 X96.005 Y84.656 E.0027
G1 X95.824 Y83.795 E.02245
M204 P1000
G1 E-2.24 F4200
;WIPE_START
G1 F7200
G1 X96.005 Y84.656 E-.48725
G1 X96.085 Y84.725 E-.05871
G1 X96.085 Y85.386 E-.36604
;WIPE_END
G1 E-.048 F4200
G1 Z.4 F720
G1 X95.332 Y85.554 F9000
G1 Z.2 F720
G1 E3.2 F2400
M204 P800
G1 F1200
G1 X95.071 Y84.304 E.03261
G1 X95.071 Y80.225 E.10413
G1 X94.878 Y79.309 E.0239
G1 X94.564 Y79.287 E.00804
G1 X94.564 Y82.6 E.08458
G1 X94.535 Y82.575 E.00098
G1 X94.088 Y82.542 E.01145
G1 X94.057 Y82.569 E.00104
G1 X94.057 Y79.252 E.08469
G1 X93.55 Y79.216 E.01298
G1 X93.55 Y86.664 E.19017
G1 X93.487 Y87.559 E.0229
G1 X93.042 Y87.527 E.01138
G1 X93.042 Y79.181 E.21312
G1 X92.535 Y79.145 E.01298
G1 X92.535 Y79.991 E.0216
G1 X92.562 Y79.998 E.00069
G1 X92.746 Y80.248 E.00793
G1 X92.535 Y83.254 E.07694
G1 X92.535 Y87.492 E.10821
G1 X92.028 Y87.456 E.01298
G1 X92.028 Y86.618 E.02141
G1 X91.521 Y86.666 E.01301
G1 X91.521 Y87.421 E.01927
M204 P1000
G1 E-2.24 F4200
;WIPE_START
G1 F7200
G1 X91.521 Y86.666 E-.41826
G1 X92.028 Y86.618 E-.28227
G1 X92.028 Y86.999 E-.21147
;WIPE_END
G1 E-.048 F4200
G1 Z.4 F720
G1 X92.386 Y79.956 F9000
G1 Z.2 F720
G1 E3.2 F2400
M204 P800
G1 F1200
G1 X92.028 Y79.87 E.00939
G1 X92.037 Y79.11 E.0194
G1 X92.382 Y79.134 E.00883
M204 P1000
G1 E-2.24 F4200
;WIPE_START
G1 F7200
G1 X92.037 Y79.11 E-.19163
G1 X92.028 Y79.87 E-.42114
G1 X92.386 Y79.956 E-.20383
;WIPE_END
G1 E-.14339 F4200
G1 Z.4 F720
G1 X92.182 Y77.595 F9000
G1 Z.2 F720
G1 E3.2 F2400
M204 P800
G1 F1200
G1 X92.324 Y77.595 E.00364
G1 X92.324 Y75.756 E.04696
G1 X92.028 Y75.756 E.00756
G1 X92.028 Y77.595 E.04696
G1 X91.687 Y77.595 E.00871
G1 X91.565 Y76.915 E.01766
G1 X91.521 Y76.878 E.00146
G1 X91.521 Y75.756 E.02864
G1 X91.014 Y75.756 E.01295
G1 X91.014 Y76.718 E.02454
G1 X90.507 Y76.718 E.01295
G1 X90.507 Y75.756 E.02454
G1 X90 Y75.756 E.01295
G1 X90 Y76.718 E.02454
G1 X89.952 Y76.718 E.00123
G1 X89.739 Y76.931 E.0077
M204 P1000
G1 E-2.24 F4200
;WIPE_START
G1 F7200
G1 X89.952 Y76.718 E-.16717
G1 X90 Y76.718 E-.02666
G1 X90 Y75.756 E-.53261
G1 X90.335 Y75.756 E-.18556
;WIPE_END
G1 E-.048 F4200
G1 Z.4 F720
G1 X85.943 Y75.756 F9000
G1 Z.2 F720
G1 E3.2 F2400
M204 P800
G1 F1200
G1 X85.943 Y77.595 E.04696
G1 X86.45 Y77.595 E.01295
G1 X86.45 Y75.756 E.04696
G1 X86.804 Y75.756 E.00903
M204 P1000
G1 X86.696 Y76.828 F9000
M204 P800
G1 F1200
G1 X86.828 Y76.718 E.0044
G1 X86.958 Y76.718 E.0033
G1 X86.958 Y75.756 E.02454
G1 X87.465 Y75.756 E.01295
G1 X87.465 Y76.718 E.02454
G1 X87.972 Y76.718 E.01295
G1 X87.972 Y75.756 E.02454
G1 X88.479 Y75.756 E.01295
G1 X88.479 Y84.082 E.21258
G1 X88.986 Y84.082 E.01295
G1 X88.986 Y75.756 E.21258
G1 X89.493 Y75.756 E.01295
G1 X89.493 Y84.082 E.21258
G1 X90 Y84.082 E.01295
G1 X90 Y83.25 E.02125
G1 X89.905 Y83.234 E.00247
G1 X89.739 Y83.038 E.00656
M204 P1000
G1 X90.151 Y83.275 F9000
M204 P800
G1 F1200
G1 X90.49 Y83.331 E.00877
G1 X90.49 Y84.082 E.01917
G1 X90.154 Y84.082 E.00859
M204 P1000
G1 E-2.24 F4200
;WIPE_START
G1 F7200
G1 X90.49 Y84.082 E-.18653
G1 X90.49 Y83.331 E-.41606
G1 X90.151 Y83.275 E-.19025
;WIPE_END
G1 E-.16716 F4200
G1 Z.4 F720
G1 X88.233 Y83.237 F9000
G1 Z.2 F720
G1 E3.2 F2400
M204 P800
G1 F1200
G1 X87.972 Y83.281 E.00677
G1 X87.972 Y84.082 E.02046
G1 X87.668 Y84.082 E.00776
G1 X87.668 Y83.331 E.01917
G1 X87.82 Y83.306 E.00394
M204 P1000
G1 E-2.24 F4200
;WIPE_START
G1 F7200
M73 P3 R28
G1 X87.668 Y83.331 E-.08554
G1 X87.668 Y84.082 E-.41606
G1 X87.972 Y84.082 E-.16832
G1 X87.972 Y83.645 E-.24207
;WIPE_END
G1 E-.048 F4200
G1 Z.4 F720
G1 X85.59 Y81.338 F9000
G1 Z.2 F720
G1 E3.2 F2400
M204 P800
G1 F1200
G1 X85.883 Y81.338 E.00749
G1 X85.883 Y79.433 E.04863
G1 X85.436 Y79.433 E.01141
G1 X85.436 Y81.338 E.04863
G1 X85.052 Y81.338 E.00981
G1 X84.929 Y80.747 E.0154
G1 X84.929 Y79.433 E.03356
G1 X84.422 Y79.433 E.01295
G1 X84.422 Y80.394 E.02454
G1 X83.915 Y80.394 E.01295
G1 X83.915 Y79.433 E.02454
G1 X83.408 Y79.433 E.01295
G1 X83.408 Y80.394 E.02454
G1 X82.901 Y80.408 E.01295
G1 X82.901 Y79.433 E.02489
G1 X82.394 Y79.454 E.01296
G1 X82.394 Y80.563 E.02831
G1 X82.28 Y80.639 E.0035
G1 X82.132 Y80.785 E.00529
M204 P1000
G1 E-2.24 F4200
;WIPE_START
G1 F7200
G1 X82.28 Y80.639 E-.11487
G1 X82.394 Y80.563 E-.07595
G1 X82.394 Y79.454 E-.61439
G1 X82.586 Y79.446 E-.10678
;WIPE_END
G1 E-.048 F4200
G1 Z.4 F720
G1 X80.873 Y87.76 F9000
G1 Z.2 F720
G1 E3.2 F2400
M204 P800
G1 F1200
G1 X80.873 Y85.855 E.04863
G1 X81.38 Y85.855 E.01295
